source/_assets/[A] Burn.cube
#Created by: Adobe Photoshop Export Color Lookup Plugin
TITLE "burn"
#LUT size
LUT_3D_SIZE 5
#data domain
#LUT data points
DOMAIN_MIN 0.000000 0.000000 0.000000
DOMAIN_MAX 0.903226 0.903226 0.903226
0.000000 0.000000 0.000000
0.136841 0.000000 0.000000
0.285614 0.000000 0.000000
0.487366 0.000000 0.000000
0.825104 0.000000 0.000000
0.000000 0.136841 0.000000
0.136841 0.136841 0.000000
0.285614 0.136841 0.000000
0.487366 0.136841 0.000000
0.825104 0.136841 0.000000
0.000000 0.285614 0.000000
0.136841 0.285614 0.000000
0.285614 0.285614 0.000000
0.487366 0.285614 0.000000
0.825104 0.285614 0.000000
0.000000 0.487366 0.000000
0.136841 0.487366 0.000000
0.285614 0.487366 0.000000
0.487366 0.487366 0.000000
0.825104 0.487366 0.000000
0.000000 0.825104 0.000000
0.136841 0.825104 0.000000
0.285614 0.825104 0.000000
0.487366 0.825104 0.000000
0.825104 0.825104 0.000000
0.000000 0.000000 0.136841
0.136841 0.000000 0.136841
0.285614 0.000000 0.136841
0.487366 0.000000 0.136841
0.825104 0.000000 0.136841
0.000000 0.136841 0.136841
0.136841 0.136841 0.136841
0.287598 0.135986 0.135986
0.493622 0.134155 0.134155
0.842560 0.129364 0.129364
0.000000 0.285614 0.136841
0.134766 0.287048 0.134766
0.286072 0.286072 0.133087
0.492828 0.284088 0.130127
0.843018 0.278992 0.123474
0.000000 0.487366 0.136841
0.129333 0.492554 0.129333
0.281403 0.491425 0.126556
0.489197 0.489197 0.122070
0.841064 0.483734 0.112854
0.000000 0.825104 0.136841
0.113586 0.841248 0.113586
0.266907 0.839813 0.108917
0.476379 0.837219 0.101898
0.831085 0.831085 0.088409
0.000000 0.000000 0.285614
0.136841 0.000000 0.285614
0.285614 0.000000 0.285614
0.487366 0.000000 0.285614
0.825104 0.000000 0.285614
0.000000 0.136841 0.285614
0.136566 0.136566 0.287750
0.287445 0.135559 0.287445
0.493591 0.133514 0.286346
0.842773 0.128387 0.282806
0.000000 0.285614 0.285614
0.134186 0.286743 0.286743
0.285614 0.285614 0.285614
0.492523 0.283417 0.283417
0.842926 0.277985 0.277985
0.000000 0.487366 0.285614
0.128357 0.492188 0.282776
0.280548 0.490906 0.280548
0.488464 0.488464 0.276825
0.840546 0.482635 0.268829
0.000000 0.825104 0.285614
0.111908 0.840790 0.269470
0.265350 0.839172 0.265350
0.474945 0.836365 0.259064
0.829895 0.829895 0.246857
0.000000 0.000000 0.487366
0.136841 0.000000 0.487366
0.285614 0.000000 0.487366
0.487366 0.000000 0.487366
0.825104 0.000000 0.487366
0.000000 0.136841 0.487366
0.136139 0.136139 0.493134
0.287140 0.134918 0.493561
0.493500 0.132599 0.493500
0.842957 0.126984 0.491608
0.000000 0.285614 0.487366
0.133331 0.286255 0.493591
0.284882 0.284882 0.493195
0.491974 0.282410 0.491974
0.842712 0.276489 0.488251
0.000000 0.487366 0.487366
0.126953 0.491608 0.491608
0.279266 0.490082 0.490082
0.487366 0.487366 0.487366
0.839783 0.481079 0.481079
0.000000 0.825104 0.487366
0.109558 0.840057 0.481598
0.263153 0.838257 0.478210
0.472961 0.835144 0.472961
0.828217 0.828217 0.462402
0.000000 0.000000 0.825104
0.136841 0.000000 0.825104
0.285614 0.000000 0.825104
0.487366 0.000000 0.825104
0.825104 0.000000 0.825104
0.000000 0.136841 0.825104
0.135132 0.135132 0.838837
0.286377 0.133575 0.840515
0.493042 0.130768 0.842102
0.843048 0.124359 0.843048
0.000000 0.285614 0.825104
0.131653 0.285156 0.841736
0.283447 0.283447 0.842560
0.490875 0.280487 0.843048
0.842102 0.273804 0.842102
0.000000 0.487366 0.825104
0.124359 0.490387 0.843048
0.276886 0.488525 0.842773
0.485291 0.485291 0.841705
0.838257 0.478210 0.838257
0.000000 0.825104 0.825104
0.105377 0.838562 0.838562
0.259186 0.836426 0.836426
0.469330 0.832825 0.832825
0.825104 0.825104 0.825104
