source/_assets/[A] Burn.cube
#Created by: Adobe Photoshop Export Color Lookup Plugin
TITLE "burn"
#LUT size
LUT_3D_SIZE 8
#data domain
#LUT data points
DOMAIN_MIN 0.000000 0.000000 0.000000
DOMAIN_MAX 0.903226 0.903226 0.903226
0.000000 0.000000 0.000000
0.077454 0.000000 0.000000
0.157074 0.000000 0.000000
0.241058 0.000000 0.000000
0.333954 0.000000 0.000000
0.451752 0.000000 0.000000
0.613922 0.000000 0.000000
0.825104 0.000000 0.000000
0.000000 0.077454 0.000000
0.077454 0.077454 0.000000
0.157074 0.077454 0.000000
0.241058 0.077454 0.000000
0.333954 0.077454 0.000000
0.451752 0.077454 0.000000
0.613922 0.077454 0.000000
0.825104 0.077454 0.000000
0.000000 0.157074 0.000000
0.077454 0.157074 0.000000
0.157074 0.157074 0.000000
0.241058 0.157074 0.000000
0.333954 0.157074 0.000000
0.451752 0.157074 0.000000
0.613922 0.157074 0.000000
0.825104 0.157074 0.000000
0.000000 0.241058 0.000000
0.077454 0.241058 0.000000
0.157074 0.241058 0.000000
0.241058 0.241058 0.000000
0.333954 0.241058 0.000000
0.451752 0.241058 0.000000
0.613922 0.241058 0.000000
0.825104 0.241058 0.000000
0.000000 0.333954 0.000000
0.077454 0.333954 0.000000
0.157074 0.333954 0.000000
0.241058 0.333954 0.000000
0.333954 0.333954 0.000000
0.451752 0.333954 0.000000
0.613922 0.333954 0.000000
0.825104 0.333954 0.000000
0.000000 0.451752 0.000000
0.077454 0.451752 0.000000
0.157074 0.451752 0.000000
0.241058 0.451752 0.000000
0.333954 0.451752 0.000000
0.451752 0.451752 0.000000
0.613922 0.451752 0.000000
0.825104 0.451752 0.000000
0.000000 0.613922 0.000000
0.077454 0.613922 0.000000
0.157074 0.613922 0.000000
0.241058 0.613922 0.000000
0.333954 0.613922 0.000000
0.451752 0.613922 0.000000
0.613922 0.613922 0.000000
0.825104 0.613922 0.000000
0.000000 0.825104 0.000000
0.077454 0.825104 0.000000
0.157074 0.825104 0.000000
0.241058 0.825104 0.000000
0.333954 0.825104 0.000000
0.451752 0.825104 0.000000
0.613922 0.825104 0.000000
0.825104 0.825104 0.000000
0.000000 0.000000 0.077454
0.077454 0.000000 0.077454
0.157074 0.000000 0.077454
0.241058 0.000000 0.077454
0.333954 0.000000 0.077454
0.451752 0.000000 0.077454
0.613922 0.000000 0.077454
0.825104 0.000000 0.077454
0.000000 0.077454 0.077454
0.077454 0.077454 0.077454
0.157684 0.077209 0.077209
0.242584 0.076782 0.076782
0.336884 0.076202 0.076202
0.457001 0.075195 0.075195
0.623352 0.073395 0.073395
0.841766 0.070312 0.070312
0.000000 0.157074 0.077454
0.076843 0.157501 0.076843
0.157196 0.157196 0.076355
0.242310 0.156769 0.075714
0.336761 0.156128 0.074829
0.457123 0.155090 0.073486
0.623810 0.153229 0.071198
0.842621 0.150024 0.067474
0.000000 0.241058 0.077454
0.075684 0.242279 0.075684
0.156219 0.241943 0.074951
0.241486 0.241486 0.074036
0.336151 0.240784 0.072876
0.456726 0.239685 0.071136
0.623779 0.237732 0.068359
0.843048 0.234467 0.063995
0.000000 0.333954 0.077454
0.073792 0.336487 0.073792
0.154541 0.336121 0.072784
0.239960 0.335602 0.071564
0.334869 0.334869 0.070099
0.455750 0.333710 0.067963
0.623138 0.331665 0.064606
0.842896 0.328278 0.059509
0.000000 0.451752 0.077454
0.070496 0.456573 0.070496
0.151459 0.456146 0.069122
0.237183 0.455566 0.067566
0.332306 0.454773 0.065643
0.453522 0.453522 0.063019
0.621399 0.451385 0.058960
0.841766 0.447845 0.052917
0.000000 0.613922 0.077454
0.064301 0.623047 0.064301
0.145569 0.622559 0.062469
0.231598 0.621887 0.060364
0.327148 0.621033 0.057922
0.448822 0.619659 0.054535
0.617371 0.617371 0.049500
0.838562 0.613617 0.042175
0.000000 0.825104 0.077454
0.053314 0.841858 0.053314
0.135010 0.841278 0.050842
0.221497 0.840515 0.048096
0.317535 0.839508 0.044891
0.439819 0.838013 0.040619
0.609222 0.835541 0.034332
0.831543 0.831543 0.025299
0.000000 0.000000 0.157074
0.077454 0.000000 0.157074
0.157074 0.000000 0.157074
0.241058 0.000000 0.157074
0.333954 0.000000 0.157074
0.451752 0.000000 0.157074
0.613922 0.000000 0.157074
0.825104 0.000000 0.157074
0.000000 0.077454 0.157074
0.077362 0.077362 0.157715
0.157623 0.077087 0.157623
0.242554 0.076630 0.157379
0.336884 0.075989 0.156982
0.457062 0.074921 0.156189
0.623474 0.073029 0.154724
0.841949 0.069824 0.152039
0.000000 0.157074 0.157074
0.076660 0.157410 0.157410
0.157074 0.157074 0.157074
0.242188 0.156586 0.156586
0.336700 0.155914 0.155914
0.457092 0.154785 0.154785
0.623840 0.152832 0.152832
0.842743 0.149536 0.149536
0.000000 0.241058 0.157074
0.075409 0.242188 0.156586
0.156006 0.241821 0.156006
0.241272 0.241272 0.155243
0.335968 0.240540 0.154266
0.456635 0.239380 0.152771
0.623718 0.237335 0.150330
0.843048 0.233917 0.146332
0.000000 0.333954 0.157074
0.073456 0.336365 0.155060
0.154205 0.335968 0.154205
0.239685 0.335388 0.153168
0.334595 0.334595 0.151855
0.455505 0.333374 0.149963
0.622986 0.331238 0.146942
0.842804 0.327728 0.142242
0.000000 0.451752 0.157074
0.070007 0.456451 0.152222
0.151001 0.455963 0.151001
0.236725 0.455353 0.149597
0.331940 0.454498 0.147888
0.453186 0.453186 0.145477
0.621124 0.450958 0.141724
0.841553 0.447296 0.136078
0.000000 0.613922 0.157074
0.063629 0.622894 0.146637
0.144958 0.622345 0.144958
0.231018 0.621643 0.143036
0.326569 0.620728 0.140747
0.448303 0.619293 0.137634
0.616913 0.616913 0.132904
0.838196 0.613037 0.125977
0.000000 0.825104 0.157074
0.052429 0.841675 0.136475
0.134155 0.841034 0.134155
0.220642 0.840210 0.131561
0.316711 0.839172 0.128571
0.439087 0.837616 0.124512
0.608521 0.835052 0.118500
0.830933 0.830933 0.109924
0.000000 0.000000 0.241058
0.077454 0.000000 0.241058
0.157074 0.000000 0.241058
0.241058 0.000000 0.241058
0.333954 0.000000 0.241058
0.451752 0.000000 0.241058
0.613922 0.000000 0.241058
0.825104 0.000000 0.241058
0.000000 0.077454 0.241058
0.077271 0.077271 0.242523
0.157562 0.076935 0.242584
0.242523 0.076416 0.242523
0.336884 0.075714 0.242310
0.457092 0.074615 0.241791
0.623596 0.072632 0.240631
0.842163 0.069275 0.238403
0.000000 0.157074 0.241058
0.076477 0.157288 0.242554
0.156921 0.156921 0.242371
0.242065 0.156372 0.242065
0.336609 0.155640 0.241547
0.457031 0.154449 0.240692
0.623840 0.152405 0.239044
0.842834 0.148956 0.236176
0.000000 0.241058 0.241058
0.075134 0.242065 0.242065
0.155731 0.241638 0.241638
0.241058 0.241058 0.241058
0.335815 0.240265 0.240265
0.456482 0.239014 0.239014
0.623627 0.236877 0.236877
0.843048 0.233368 0.233368
0.000000 0.333954 0.241058
0.073059 0.336212 0.240906
0.153839 0.335754 0.240204
0.239349 0.335144 0.239349
0.334290 0.334290 0.238220
0.455261 0.333008 0.236572
0.622803 0.330780 0.233887
0.842682 0.327148 0.229614
0.000000 0.451752 0.241058
0.069489 0.456268 0.238556
0.150513 0.455750 0.237488
0.236267 0.455078 0.236267
0.331482 0.454163 0.234741
0.452789 0.452789 0.232574
0.620819 0.450470 0.229187
0.841309 0.446686 0.223969
0.000000 0.613922 0.241058
0.062927 0.622711 0.233643
0.144257 0.622101 0.232086
0.230377 0.621368 0.230377
0.325958 0.620361 0.228271
0.447723 0.618896 0.225403
0.616394 0.616394 0.221008
0.837769 0.612427 0.214569
0.000000 0.825104 0.241058
0.051483 0.841461 0.224335
0.133209 0.840729 0.222168
0.219757 0.839874 0.219757
0.315857 0.838776 0.216949
0.438263 0.837158 0.213165
0.607758 0.834503 0.207489
0.830261 0.830261 0.199341
0.000000 0.000000 0.333954
0.077454 0.000000 0.333954
0.157074 0.000000 0.333954
0.241058 0.000000 0.333954
0.333954 0.000000 0.333954
0.451752 0.000000 0.333954
0.613922 0.000000 0.333954
0.825104 0.000000 0.333954
0.000000 0.077454 0.333954
0.077148 0.077148 0.336487
0.157440 0.076752 0.336731
0.242462 0.076202 0.336884
0.336884 0.075439 0.336884
0.457123 0.074219 0.336609
0.623688 0.072144 0.335846
0.842346 0.068665 0.334106
0.000000 0.157074 0.333954
0.076233 0.157135 0.336884
0.156708 0.156708 0.336884
0.241882 0.156128 0.336761
0.336487 0.155304 0.336487
0.456970 0.154053 0.335876
0.623840 0.151886 0.334625
0.842926 0.148346 0.332245
0.000000 0.241058 0.333954
0.074799 0.241882 0.336761
0.155426 0.241425 0.336517
0.240784 0.240784 0.336151
0.335571 0.239929 0.335571
0.456299 0.238617 0.334595
0.623535 0.236389 0.332825
0.843018 0.232727 0.329803
0.000000 0.333954 0.333954
0.072601 0.336029 0.336029
0.153412 0.335510 0.335510
0.238953 0.334839 0.334839
0.333954 0.333954 0.333954
0.454956 0.332581 0.332581
0.622559 0.330261 0.330261
0.842560 0.326477 0.326477
0.000000 0.451752 0.333954
0.068878 0.456055 0.334198
0.149933 0.455505 0.333344
0.235718 0.454773 0.332306
0.330994 0.453796 0.330994
0.452332 0.452332 0.329102
0.620453 0.449921 0.326080
0.841034 0.446014 0.321350
0.000000 0.613922 0.333954
0.062103 0.622467 0.330017
0.143463 0.621826 0.328674
0.229614 0.621002 0.327118
0.325256 0.619965 0.325256
0.447083 0.618408 0.322662
0.615814 0.615814 0.318604
0.837280 0.611694 0.312653
0.000000 0.825104 0.333954
0.050385 0.841125 0.321686
0.132172 0.840424 0.319702
0.218750 0.839508 0.317505
0.314911 0.838348 0.314911
0.437347 0.836639 0.311371
0.606934 0.833862 0.306061
0.829498 0.829498 0.298431
0.000000 0.000000 0.451752
0.077454 0.000000 0.451752
0.157074 0.000000 0.451752
0.241058 0.000000 0.451752
0.333954 0.000000 0.451752
0.451752 0.000000 0.451752
0.613922 0.000000 0.451752
0.825104 0.000000 0.451752
0.000000 0.077454 0.451752
0.076935 0.076935 0.455933
0.157288 0.076477 0.456390
0.242371 0.075867 0.456787
0.336792 0.075012 0.457031
0.457123 0.073700 0.457123
0.623779 0.071503 0.456818
0.842529 0.067841 0.455688
0.000000 0.157074 0.451752
0.075897 0.156921 0.456757
0.156433 0.156433 0.457001
0.241669 0.155762 0.457123
0.336304 0.154877 0.457092
0.456848 0.153534 0.456848
0.623840 0.151245 0.456055
0.843018 0.147522 0.454315
0.000000 0.241058 0.451752
0.074341 0.241638 0.457123
0.154999 0.241119 0.457123
0.240417 0.240417 0.456970
0.335236 0.239502 0.456665
0.456024 0.238068 0.456024
0.623383 0.235718 0.454773
0.842987 0.231873 0.452332
0.000000 0.333954 0.451752
0.071960 0.335785 0.456940
0.152832 0.335205 0.456635
0.238434 0.334442 0.456207
0.333496 0.333496 0.455597
0.454559 0.332001 0.454559
0.622253 0.329559 0.452698
0.842346 0.325623 0.449554
0.000000 0.451752 0.451752
0.068085 0.455780 0.455780
0.149170 0.455139 0.455139
0.235016 0.454346 0.454346
0.330322 0.453308 0.453308
0.451752 0.451752 0.451752
0.619904 0.449188 0.449188
0.840637 0.445099 0.445099
0.000000 0.613922 0.451752
0.061035 0.622131 0.452515
0.142456 0.621429 0.451416
0.228638 0.620544 0.450073
0.324341 0.619415 0.448486
0.446228 0.617737 0.446228
0.615051 0.615051 0.442688
0.836609 0.610748 0.437317
0.000000 0.825104 0.451752
0.048981 0.840759 0.445374
0.130829 0.839966 0.443634
0.217438 0.838989 0.441650
0.313629 0.837738 0.439331
0.436127 0.835938 0.436127
0.605804 0.833038 0.431305
0.828491 0.828491 0.424255
0.000000 0.000000 0.613922
0.077454 0.000000 0.613922
0.157074 0.000000 0.613922
0.241058 0.000000 0.613922
0.333954 0.000000 0.613922
0.451752 0.000000 0.613922
0.613922 0.000000 0.613922
0.825104 0.000000 0.613922
0.000000 0.077454 0.613922
0.076599 0.076599 0.620789
0.157013 0.076050 0.621582
0.242157 0.075348 0.622314
0.336670 0.074402 0.622925
0.457092 0.072968 0.623505
0.623840 0.070557 0.623840
0.842773 0.066681 0.623566
0.000000 0.157074 0.613922
0.075409 0.156555 0.622253
0.155975 0.155975 0.622803
0.241272 0.155212 0.623260
0.335968 0.154236 0.623627
0.456604 0.152740 0.623840
0.623718 0.150269 0.623718
0.843048 0.146301 0.622772
0.000000 0.241058 0.613922
0.073639 0.241272 0.623291
0.154358 0.240631 0.623596
0.239838 0.239838 0.623810
0.334747 0.238800 0.623871
0.455627 0.237274 0.623718
0.623047 0.234711 0.623047
0.842834 0.230621 0.621460
0.000000 0.333954 0.613922
0.071075 0.335358 0.623840
0.152008 0.334686 0.623871
0.237640 0.333862 0.623779
0.332764 0.332764 0.623505
0.453918 0.331146 0.622955
0.621735 0.328522 0.621735
0.842010 0.324341 0.619415
0.000000 0.451752 0.613922
0.066895 0.455292 0.623596
0.148071 0.454590 0.623291
0.233978 0.453674 0.622803
0.329376 0.452545 0.622162
0.450867 0.450867 0.621063
0.619171 0.448120 0.619171
0.840057 0.443787 0.615906
0.000000 0.613922 0.613922
0.059509 0.621613 0.621613
0.140991 0.620819 0.620819
0.227234 0.619843 0.619843
0.322998 0.618622 0.618622
0.444977 0.616821 0.616821
0.613922 0.613922 0.613922
0.835663 0.609406 0.609406
0.000000 0.825104 0.613922
0.046997 0.840179 0.616150
0.128876 0.839294 0.614716
0.215576 0.838226 0.613068
0.311829 0.836884 0.611115
0.434418 0.834930 0.608398
0.604218 0.831848 0.604218
0.827057 0.827057 0.598022
0.000000 0.000000 0.825104
0.077454 0.000000 0.825104
0.157074 0.000000 0.825104
0.241058 0.000000 0.825104
0.333954 0.000000 0.825104
0.451752 0.000000 0.825104
0.613922 0.000000 0.825104
0.825104 0.000000 0.825104
0.000000 0.077454 0.825104
0.076080 0.076080 0.836304
0.156555 0.075409 0.837524
0.241760 0.074554 0.838684
0.336395 0.073486 0.839783
0.456909 0.071869 0.840973
0.623840 0.069244 0.842163
0.842987 0.065033 0.842987
0.000000 0.157074 0.825104
0.074646 0.156006 0.838593
0.155273 0.155273 0.839569
0.240662 0.154419 0.840454
0.335449 0.153290 0.841309
0.456207 0.151611 0.842133
0.623474 0.148895 0.842834
0.843018 0.144623 0.843018
0.000000 0.241058 0.825104
0.072632 0.240662 0.840485
0.153442 0.239899 0.841217
0.238983 0.238983 0.841827
0.333984 0.237823 0.842377
0.454987 0.236115 0.842834
0.622589 0.233307 0.843048
0.842560 0.228943 0.842560
0.000000 0.333954 0.825104
0.069794 0.334717 0.841980
0.150787 0.333923 0.842407
0.236542 0.332977 0.842773
0.331726 0.331726 0.842987
0.453003 0.329956 0.843048
0.620972 0.327087 0.842682
0.841461 0.322571 0.841461
0.000000 0.451752 0.825104
0.065277 0.454620 0.842926
0.146515 0.453766 0.843048
0.232513 0.452759 0.843018
0.328003 0.451477 0.842834
0.449646 0.449646 0.842377
0.618042 0.446625 0.841309
0.839172 0.442017 0.839172
0.000000 0.613922 0.825104
0.057434 0.620850 0.842621
0.138977 0.619934 0.842255
0.225311 0.618835 0.841705
0.321167 0.617462 0.840973
0.443268 0.615509 0.839783
0.612366 0.612366 0.837738
0.834320 0.607544 0.834320
0.000000 0.825104 0.825104
0.044312 0.839325 0.839325
0.126251 0.838287 0.838287
0.213043 0.837128 0.837128
0.309387 0.835632 0.835632
0.432098 0.833527 0.833527
0.602051 0.830200 0.830200
0.825104 0.825104 0.825104
