source/_assets/[A] Burn.cube
#Created by: Adobe Photoshop Export Color Lookup Plugin
TITLE "burn"
#LUT size
LUT_3D_SIZE 32
#data domain
DOMAIN_MIN 0.0 0.0 0.0
DOMAIN_MAX 1.0 1.0 1.0
#LUT data points
0.000000 0.000000 0.000000
0.019287 0.000000 0.000000
0.038574 0.000000 0.000000
0.057983 0.000000 0.000000
0.077454 0.000000 0.000000
0.097046 0.000000 0.000000
0.116852 0.000000 0.000000
0.136841 0.000000 0.000000
0.157074 0.000000 0.000000
0.177582 0.000000 0.000000
0.198364 0.000000 0.000000
0.219543 0.000000 0.000000
0.241058 0.000000 0.000000
0.263000 0.000000 0.000000
0.285614 0.000000 0.000000
0.309113 0.000000 0.000000
0.333954 0.000000 0.000000
0.360291 0.000000 0.000000
0.388519 0.000000 0.000000
0.418884 0.000000 0.000000
0.451752 0.000000 0.000000
0.487366 0.000000 0.000000
0.526093 0.000000 0.000000
0.568207 0.000000 0.000000
0.613922 0.000000 0.000000
0.662933 0.000000 0.000000
0.714783 0.000000 0.000000
0.769012 0.000000 0.000000
0.825104 0.000000 0.000000
0.882629 0.000000 0.000000
0.941071 0.000000 0.000000
1.000000 0.000000 0.000000
0.000000 0.019287 0.000000
0.019287 0.019287 0.000000
0.038574 0.019287 0.000000
0.057983 0.019287 0.000000
0.077454 0.019287 0.000000
0.097046 0.019287 0.000000
0.116852 0.019287 0.000000
0.136841 0.019287 0.000000
0.157074 0.019287 0.000000
0.177582 0.019287 0.000000
0.198364 0.019287 0.000000
0.219543 0.019287 0.000000
0.241058 0.019287 0.000000
0.263000 0.019287 0.000000
0.285614 0.019287 0.000000
0.309113 0.019287 0.000000
0.333954 0.019287 0.000000
0.360291 0.019287 0.000000
0.388519 0.019287 0.000000
0.418884 0.019287 0.000000
0.451752 0.019287 0.000000
0.487366 0.019287 0.000000
0.526093 0.019287 0.000000
0.568207 0.019287 0.000000
0.613922 0.019287 0.000000
0.662933 0.019287 0.000000
0.714783 0.019287 0.000000
0.769012 0.019287 0.000000
0.825104 0.019287 0.000000
0.882629 0.019287 0.000000
0.941071 0.019287 0.000000
1.000000 0.019287 0.000000
0.000000 0.038574 0.000000
0.019287 0.038574 0.000000
0.038574 0.038574 0.000000
0.057983 0.038574 0.000000
0.077454 0.038574 0.000000
0.097046 0.038574 0.000000
0.116852 0.038574 0.000000
0.136841 0.038574 0.000000
0.157074 0.038574 0.000000
0.177582 0.038574 0.000000
0.198364 0.038574 0.000000
0.219543 0.038574 0.000000
0.241058 0.038574 0.000000
0.263000 0.038574 0.000000
0.285614 0.038574 0.000000
0.309113 0.038574 0.000000
0.333954 0.038574 0.000000
0.360291 0.038574 0.000000
0.388519 0.038574 0.000000
0.418884 0.038574 0.000000
0.451752 0.038574 0.000000
0.487366 0.038574 0.000000
0.526093 0.038574 0.000000
0.568207 0.038574 0.000000
0.613922 0.038574 0.000000
0.662933 0.038574 0.000000
0.714783 0.038574 0.000000
0.769012 0.038574 0.000000
0.825104 0.038574 0.000000
0.882629 0.038574 0.000000
0.941071 0.038574 0.000000
1.000000 0.038574 0.000000
0.000000 0.057983 0.000000
0.019287 0.057983 0.000000
0.038574 0.057983 0.000000
0.057983 0.057983 0.000000
0.077454 0.057983 0.000000
0.097046 0.057983 0.000000
0.116852 0.057983 0.000000
0.136841 0.057983 0.000000
0.157074 0.057983 0.000000
0.177582 0.057983 0.000000
0.198364 0.057983 0.000000
0.219543 0.057983 0.000000
0.241058 0.057983 0.000000
0.263000 0.057983 0.000000
0.285614 0.057983 0.000000
0.309113 0.057983 0.000000
0.333954 0.057983 0.000000
0.360291 0.057983 0.000000
0.388519 0.057983 0.000000
0.418884 0.057983 0.000000
0.451752 0.057983 0.000000
0.487366 0.057983 0.000000
0.526093 0.057983 0.000000
0.568207 0.057983 0.000000
0.613922 0.057983 0.000000
0.662933 0.057983 0.000000
0.714783 0.057983 0.000000
0.769012 0.057983 0.000000
0.825104 0.057983 0.000000
0.882629 0.057983 0.000000
0.941071 0.057983 0.000000
1.000000 0.057983 0.000000
0.000000 0.077454 0.000000
0.019287 0.077454 0.000000
0.038574 0.077454 0.000000
0.057983 0.077454 0.000000
0.077454 0.077454 0.000000
0.097046 0.077454 0.000000
0.116852 0.077454 0.000000
0.136841 0.077454 0.000000
0.157074 0.077454 0.000000
0.177582 0.077454 0.000000
0.198364 0.077454 0.000000
0.219543 0.077454 0.000000
0.241058 0.077454 0.000000
0.263000 0.077454 0.000000
0.285614 0.077454 0.000000
0.309113 0.077454 0.000000
0.333954 0.077454 0.000000
0.360291 0.077454 0.000000
0.388519 0.077454 0.000000
0.418884 0.077454 0.000000
0.451752 0.077454 0.000000
0.487366 0.077454 0.000000
0.526093 0.077454 0.000000
0.568207 0.077454 0.000000
0.613922 0.077454 0.000000
0.662933 0.077454 0.000000
0.714783 0.077454 0.000000
0.769012 0.077454 0.000000
0.825104 0.077454 0.000000
0.882629 0.077454 0.000000
0.941071 0.077454 0.000000
1.000000 0.077454 0.000000
0.000000 0.097046 0.000000
0.019287 0.097046 0.000000
0.038574 0.097046 0.000000
0.057983 0.097046 0.000000
0.077454 0.097046 0.000000
0.097046 0.097046 0.000000
0.116852 0.097046 0.000000
0.136841 0.097046 0.000000
0.157074 0.097046 0.000000
0.177582 0.097046 0.000000
0.198364 0.097046 0.000000
0.219543 0.097046 0.000000
0.241058 0.097046 0.000000
0.263000 0.097046 0.000000
0.285614 0.097046 0.000000
0.309113 0.097046 0.000000
0.333954 0.097046 0.000000
0.360291 0.097046 0.000000
0.388519 0.097046 0.000000
0.418884 0.097046 0.000000
0.451752 0.097046 0.000000
0.487366 0.097046 0.000000
0.526093 0.097046 0.000000
0.568207 0.097046 0.000000
0.613922 0.097046 0.000000
0.662933 0.097046 0.000000
0.714783 0.097046 0.000000
0.769012 0.097046 0.000000
0.825104 0.097046 0.000000
0.882629 0.097046 0.000000
0.941071 0.097046 0.000000
1.000000 0.097046 0.000000
0.000000 0.116852 0.000000
0.019287 0.116852 0.000000
0.038574 0.116852 0.000000
0.057983 0.116852 0.000000
0.077454 0.116852 0.000000
0.097046 0.116852 0.000000
0.116852 0.116852 0.000000
0.136841 0.116852 0.000000
0.157074 0.116852 0.000000
0.177582 0.116852 0.000000
0.198364 0.116852 0.000000
0.219543 0.116852 0.000000
0.241058 0.116852 0.000000
0.263000 0.116852 0.000000
0.285614 0.116852 0.000000
0.309113 0.116852 0.000000
0.333954 0.116852 0.000000
0.360291 0.116852 0.000000
0.388519 0.116852 0.000000
0.418884 0.116852 0.000000
0.451752 0.116852 0.000000
0.487366 0.116852 0.000000
0.526093 0.116852 0.000000
0.568207 0.116852 0.000000
0.613922 0.116852 0.000000
0.662933 0.116852 0.000000
0.714783 0.116852 0.000000
0.769012 0.116852 0.000000
0.825104 0.116852 0.000000
0.882629 0.116852 0.000000
0.941071 0.116852 0.000000
1.000000 0.116852 0.000000
0.000000 0.136841 0.000000
0.019287 0.136841 0.000000
0.038574 0.136841 0.000000
0.057983 0.136841 0.000000
0.077454 0.136841 0.000000
0.097046 0.136841 0.000000
0.116852 0.136841 0.000000
0.136841 0.136841 0.000000
0.157074 0.136841 0.000000
0.177582 0.136841 0.000000
0.198364 0.136841 0.000000
0.219543 0.136841 0.000000
0.241058 0.136841 0.000000
0.263000 0.136841 0.000000
0.285614 0.136841 0.000000
0.309113 0.136841 0.000000
0.333954 0.136841 0.000000
0.360291 0.136841 0.000000
0.388519 0.136841 0.000000
0.418884 0.136841 0.000000
0.451752 0.136841 0.000000
0.487366 0.136841 0.000000
0.526093 0.136841 0.000000
0.568207 0.136841 0.000000
0.613922 0.136841 0.000000
0.662933 0.136841 0.000000
0.714783 0.136841 0.000000
0.769012 0.136841 0.000000
0.825104 0.136841 0.000000
0.882629 0.136841 0.000000
0.941071 0.136841 0.000000
1.000000 0.136841 0.000000
0.000000 0.157074 0.000000
0.019287 0.157074 0.000000
0.038574 0.157074 0.000000
0.057983 0.157074 0.000000
0.077454 0.157074 0.000000
0.097046 0.157074 0.000000
0.116852 0.157074 0.000000
0.136841 0.157074 0.000000
0.157074 0.157074 0.000000
0.177582 0.157074 0.000000
0.198364 0.157074 0.000000
0.219543 0.157074 0.000000
0.241058 0.157074 0.000000
0.263000 0.157074 0.000000
0.285614 0.157074 0.000000
0.309113 0.157074 0.000000
0.333954 0.157074 0.000000
0.360291 0.157074 0.000000
0.388519 0.157074 0.000000
0.418884 0.157074 0.000000
0.451752 0.157074 0.000000
0.487366 0.157074 0.000000
0.526093 0.157074 0.000000
0.568207 0.157074 0.000000
0.613922 0.157074 0.000000
0.662933 0.157074 0.000000
0.714783 0.157074 0.000000
0.769012 0.157074 0.000000
0.825104 0.157074 0.000000
0.882629 0.157074 0.000000
0.941071 0.157074 0.000000
1.000000 0.157074 0.000000
0.000000 0.177582 0.000000
0.019287 0.177582 0.000000
0.038574 0.177582 0.000000
0.057983 0.177582 0.000000
0.077454 0.177582 0.000000
0.097046 0.177582 0.000000
0.116852 0.177582 0.000000
0.136841 0.177582 0.000000
0.157074 0.177582 0.000000
0.177582 0.177582 0.000000
0.198364 0.177582 0.000000
0.219543 0.177582 0.000000
0.241058 0.177582 0.000000
0.263000 0.177582 0.000000
0.285614 0.177582 0.000000
0.309113 0.177582 0.000000
0.333954 0.177582 0.000000
0.360291 0.177582 0.000000
0.388519 0.177582 0.000000
0.418884 0.177582 0.000000
0.451752 0.177582 0.000000
0.487366 0.177582 0.000000
0.526093 0.177582 0.000000
0.568207 0.177582 0.000000
0.613922 0.177582 0.000000
0.662933 0.177582 0.000000
0.714783 0.177582 0.000000
0.769012 0.177582 0.000000
0.825104 0.177582 0.000000
0.882629 0.177582 0.000000
0.941071 0.177582 0.000000
1.000000 0.177582 0.000000
0.000000 0.198364 0.000000
0.019287 0.198364 0.000000
0.038574 0.198364 0.000000
0.057983 0.198364 0.000000
0.077454 0.198364 0.000000
0.097046 0.198364 0.000000
0.116852 0.198364 0.000000
0.136841 0.198364 0.000000
0.157074 0.198364 0.000000
0.177582 0.198364 0.000000
0.198364 0.198364 0.000000
0.219543 0.198364 0.000000
0.241058 0.198364 0.000000
0.263000 0.198364 0.000000
0.285614 0.198364 0.000000
0.309113 0.198364 0.000000
0.333954 0.198364 0.000000
0.360291 0.198364 0.000000
0.388519 0.198364 0.000000
0.418884 0.198364 0.000000
0.451752 0.198364 0.000000
0.487366 0.198364 0.000000
0.526093 0.198364 0.000000
0.568207 0.198364 0.000000
0.613922 0.198364 0.000000
0.662933 0.198364 0.000000
0.714783 0.198364 0.000000
0.769012 0.198364 0.000000
0.825104 0.198364 0.000000
0.882629 0.198364 0.000000
0.941071 0.198364 0.000000
1.000000 0.198364 0.000000
0.000000 0.219543 0.000000
0.019287 0.219543 0.000000
0.038574 0.219543 0.000000
0.057983 0.219543 0.000000
0.077454 0.219543 0.000000
0.097046 0.219543 0.000000
0.116852 0.219543 0.000000
0.136841 0.219543 0.000000
0.157074 0.219543 0.000000
0.177582 0.219543 0.000000
0.198364 0.219543 0.000000
0.219543 0.219543 0.000000
0.241058 0.219543 0.000000
0.263000 0.219543 0.000000
0.285614 0.219543 0.000000
0.309113 0.219543 0.000000
0.333954 0.219543 0.000000
0.360291 0.219543 0.000000
0.388519 0.219543 0.000000
0.418884 0.219543 0.000000
0.451752 0.219543 0.000000
0.487366 0.219543 0.000000
0.526093 0.219543 0.000000
0.568207 0.219543 0.000000
0.613922 0.219543 0.000000
0.662933 0.219543 0.000000
0.714783 0.219543 0.000000
0.769012 0.219543 0.000000
0.825104 0.219543 0.000000
0.882629 0.219543 0.000000
0.941071 0.219543 0.000000
1.000000 0.219543 0.000000
0.000000 0.241058 0.000000
0.019287 0.241058 0.000000
0.038574 0.241058 0.000000
0.057983 0.241058 0.000000
0.077454 0.241058 0.000000
0.097046 0.241058 0.000000
0.116852 0.241058 0.000000
0.136841 0.241058 0.000000
0.157074 0.241058 0.000000
0.177582 0.241058 0.000000
0.198364 0.241058 0.000000
0.219543 0.241058 0.000000
0.241058 0.241058 0.000000
0.263000 0.241058 0.000000
0.285614 0.241058 0.000000
0.309113 0.241058 0.000000
0.333954 0.241058 0.000000
0.360291 0.241058 0.000000
0.388519 0.241058 0.000000
0.418884 0.241058 0.000000
0.451752 0.241058 0.000000
0.487366 0.241058 0.000000
0.526093 0.241058 0.000000
0.568207 0.241058 0.000000
0.613922 0.241058 0.000000
0.662933 0.241058 0.000000
0.714783 0.241058 0.000000
0.769012 0.241058 0.000000
0.825104 0.241058 0.000000
0.882629 0.241058 0.000000
0.941071 0.241058 0.000000
1.000000 0.241058 0.000000
0.000000 0.263000 0.000000
0.019287 0.263000 0.000000
0.038574 0.263000 0.000000
0.057983 0.263000 0.000000
0.077454 0.263000 0.000000
0.097046 0.263000 0.000000
0.116852 0.263000 0.000000
0.136841 0.263000 0.000000
0.157074 0.263000 0.000000
0.177582 0.263000 0.000000
0.198364 0.263000 0.000000
0.219543 0.263000 0.000000
0.241058 0.263000 0.000000
0.263000 0.263000 0.000000
0.285614 0.263000 0.000000
0.309113 0.263000 0.000000
0.333954 0.263000 0.000000
0.360291 0.263000 0.000000
0.388519 0.263000 0.000000
0.418884 0.263000 0.000000
0.451752 0.263000 0.000000
0.487366 0.263000 0.000000
0.526093 0.263000 0.000000
0.568207 0.263000 0.000000
0.613922 0.263000 0.000000
0.662933 0.263000 0.000000
0.714783 0.263000 0.000000
0.769012 0.263000 0.000000
0.825104 0.263000 0.000000
0.882629 0.263000 0.000000
0.941071 0.263000 0.000000
1.000000 0.263000 0.000000
0.000000 0.285614 0.000000
0.019287 0.285614 0.000000
0.038574 0.285614 0.000000
0.057983 0.285614 0.000000
0.077454 0.285614 0.000000
0.097046 0.285614 0.000000
0.116852 0.285614 0.000000
0.136841 0.285614 0.000000
0.157074 0.285614 0.000000
0.177582 0.285614 0.000000
0.198364 0.285614 0.000000
0.219543 0.285614 0.000000
0.241058 0.285614 0.000000
0.263000 0.285614 0.000000
0.285614 0.285614 0.000000
0.309113 0.285614 0.000000
0.333954 0.285614 0.000000
0.360291 0.285614 0.000000
0.388519 0.285614 0.000000
0.418884 0.285614 0.000000
0.451752 0.285614 0.000000
0.487366 0.285614 0.000000
0.526093 0.285614 0.000000
0.568207 0.285614 0.000000
0.613922 0.285614 0.000000
0.662933 0.285614 0.000000
0.714783 0.285614 0.000000
0.769012 0.285614 0.000000
0.825104 0.285614 0.000000
0.882629 0.285614 0.000000
0.941071 0.285614 0.000000
1.000000 0.285614 0.000000
0.000000 0.309113 0.000000
0.019287 0.309113 0.000000
0.038574 0.309113 0.000000
0.057983 0.309113 0.000000
0.077454 0.309113 0.000000
0.097046 0.309113 0.000000
0.116852 0.309113 0.000000
0.136841 0.309113 0.000000
0.157074 0.309113 0.000000
0.177582 0.309113 0.000000
0.198364 0.309113 0.000000
0.219543 0.309113 0.000000
0.241058 0.309113 0.000000
0.263000 0.309113 0.000000
0.285614 0.309113 0.000000
0.309113 0.309113 0.000000
0.333954 0.309113 0.000000
0.360291 0.309113 0.000000
0.388519 0.309113 0.000000
0.418884 0.309113 0.000000
0.451752 0.309113 0.000000
0.487366 0.309113 0.000000
0.526093 0.309113 0.000000
0.568207 0.309113 0.000000
0.613922 0.309113 0.000000
0.662933 0.309113 0.000000
0.714783 0.309113 0.000000
0.769012 0.309113 0.000000
0.825104 0.309113 0.000000
0.882629 0.309113 0.000000
0.941071 0.309113 0.000000
1.000000 0.309113 0.000000
0.000000 0.333954 0.000000
0.019287 0.333954 0.000000
0.038574 0.333954 0.000000
0.057983 0.333954 0.000000
0.077454 0.333954 0.000000
0.097046 0.333954 0.000000
0.116852 0.333954 0.000000
0.136841 0.333954 0.000000
0.157074 0.333954 0.000000
0.177582 0.333954 0.000000
0.198364 0.333954 0.000000
0.219543 0.333954 0.000000
0.241058 0.333954 0.000000
0.263000 0.333954 0.000000
0.285614 0.333954 0.000000
0.309113 0.333954 0.000000
0.333954 0.333954 0.000000
0.360291 0.333954 0.000000
0.388519 0.333954 0.000000
0.418884 0.333954 0.000000
0.451752 0.333954 0.000000
0.487366 0.333954 0.000000
0.526093 0.333954 0.000000
0.568207 0.333954 0.000000
0.613922 0.333954 0.000000
0.662933 0.333954 0.000000
0.714783 0.333954 0.000000
0.769012 0.333954 0.000000
0.825104 0.333954 0.000000
0.882629 0.333954 0.000000
0.941071 0.333954 0.000000
1.000000 0.333954 0.000000
0.000000 0.360291 0.000000
0.019287 0.360291 0.000000
0.038574 0.360291 0.000000
0.057983 0.360291 0.000000
0.077454 0.360291 0.000000
0.097046 0.360291 0.000000
0.116852 0.360291 0.000000
0.136841 0.360291 0.000000
0.157074 0.360291 0.000000
0.177582 0.360291 0.000000
0.198364 0.360291 0.000000
0.219543 0.360291 0.000000
0.241058 0.360291 0.000000
0.263000 0.360291 0.000000
0.285614 0.360291 0.000000
0.309113 0.360291 0.000000
0.333954 0.360291 0.000000
0.360291 0.360291 0.000000
0.388519 0.360291 0.000000
0.418884 0.360291 0.000000
0.451752 0.360291 0.000000
0.487366 0.360291 0.000000
0.526093 0.360291 0.000000
0.568207 0.360291 0.000000
0.613922 0.360291 0.000000
0.662933 0.360291 0.000000
0.714783 0.360291 0.000000
0.769012 0.360291 0.000000
0.825104 0.360291 0.000000
0.882629 0.360291 0.000000
0.941071 0.360291 0.000000
1.000000 0.360291 0.000000
0.000000 0.388519 0.000000
0.019287 0.388519 0.000000
0.038574 0.388519 0.000000
0.057983 0.388519 0.000000
0.077454 0.388519 0.000000
0.097046 0.388519 0.000000
0.116852 0.388519 0.000000
0.136841 0.388519 0.000000
0.157074 0.388519 0.000000
0.177582 0.388519 0.000000
0.198364 0.388519 0.000000
0.219543 0.388519 0.000000
0.241058 0.388519 0.000000
0.263000 0.388519 0.000000
0.285614 0.388519 0.000000
0.309113 0.388519 0.000000
0.333954 0.388519 0.000000
0.360291 0.388519 0.000000
0.388519 0.388519 0.000000
0.418884 0.388519 0.000000
0.451752 0.388519 0.000000
0.487366 0.388519 0.000000
0.526093 0.388519 0.000000
0.568207 0.388519 0.000000
0.613922 0.388519 0.000000
0.662933 0.388519 0.000000
0.714783 0.388519 0.000000
0.769012 0.388519 0.000000
0.825104 0.388519 0.000000
0.882629 0.388519 0.000000
0.941071 0.388519 0.000000
1.000000 0.388519 0.000000
0.000000 0.418884 0.000000
0.019287 0.418884 0.000000
0.038574 0.418884 0.000000
0.057983 0.418884 0.000000
0.077454 0.418884 0.000000
0.097046 0.418884 0.000000
0.116852 0.418884 0.000000
0.136841 0.418884 0.000000
0.157074 0.418884 0.000000
0.177582 0.418884 0.000000
0.198364 0.418884 0.000000
0.219543 0.418884 0.000000
0.241058 0.418884 0.000000
0.263000 0.418884 0.000000
0.285614 0.418884 0.000000
0.309113 0.418884 0.000000
0.333954 0.418884 0.000000
0.360291 0.418884 0.000000
0.388519 0.418884 0.000000
0.418884 0.418884 0.000000
0.451752 0.418884 0.000000
0.487366 0.418884 0.000000
0.526093 0.418884 0.000000
0.568207 0.418884 0.000000
0.613922 0.418884 0.000000
0.662933 0.418884 0.000000
0.714783 0.418884 0.000000
0.769012 0.418884 0.000000
0.825104 0.418884 0.000000
0.882629 0.418884 0.000000
0.941071 0.418884 0.000000
1.000000 0.418884 0.000000
0.000000 0.451752 0.000000
0.019287 0.451752 0.000000
0.038574 0.451752 0.000000
0.057983 0.451752 0.000000
0.077454 0.451752 0.000000
0.097046 0.451752 0.000000
0.116852 0.451752 0.000000
0.136841 0.451752 0.000000
0.157074 0.451752 0.000000
0.177582 0.451752 0.000000
0.198364 0.451752 0.000000
0.219543 0.451752 0.000000
0.241058 0.451752 0.000000
0.263000 0.451752 0.000000
0.285614 0.451752 0.000000
0.309113 0.451752 0.000000
0.333954 0.451752 0.000000
0.360291 0.451752 0.000000
0.388519 0.451752 0.000000
0.418884 0.451752 0.000000
0.451752 0.451752 0.000000
0.487366 0.451752 0.000000
0.526093 0.451752 0.000000
0.568207 0.451752 0.000000
0.613922 0.451752 0.000000
0.662933 0.451752 0.000000
0.714783 0.451752 0.000000
0.769012 0.451752 0.000000
0.825104 0.451752 0.000000
0.882629 0.451752 0.000000
0.941071 0.451752 0.000000
1.000000 0.451752 0.000000
0.000000 0.487366 0.000000
0.019287 0.487366 0.000000
0.038574 0.487366 0.000000
0.057983 0.487366 0.000000
0.077454 0.487366 0.000000
0.097046 0.487366 0.000000
0.116852 0.487366 0.000000
0.136841 0.487366 0.000000
0.157074 0.487366 0.000000
0.177582 0.487366 0.000000
0.198364 0.487366 0.000000
0.219543 0.487366 0.000000
0.241058 0.487366 0.000000
0.263000 0.487366 0.000000
0.285614 0.487366 0.000000
0.309113 0.487366 0.000000
0.333954 0.487366 0.000000
0.360291 0.487366 0.000000
0.388519 0.487366 0.000000
0.418884 0.487366 0.000000
0.451752 0.487366 0.000000
0.487366 0.487366 0.000000
0.526093 0.487366 0.000000
0.568207 0.487366 0.000000
0.613922 0.487366 0.000000
0.662933 0.487366 0.000000
0.714783 0.487366 0.000000
0.769012 0.487366 0.000000
0.825104 0.487366 0.000000
0.882629 0.487366 0.000000
0.941071 0.487366 0.000000
1.000000 0.487366 0.000000
0.000000 0.526093 0.000000
0.019287 0.526093 0.000000
0.038574 0.526093 0.000000
0.057983 0.526093 0.000000
0.077454 0.526093 0.000000
0.097046 0.526093 0.000000
0.116852 0.526093 0.000000
0.136841 0.526093 0.000000
0.157074 0.526093 0.000000
0.177582 0.526093 0.000000
0.198364 0.526093 0.000000
0.219543 0.526093 0.000000
0.241058 0.526093 0.000000
0.263000 0.526093 0.000000
0.285614 0.526093 0.000000
0.309113 0.526093 0.000000
0.333954 0.526093 0.000000
0.360291 0.526093 0.000000
0.388519 0.526093 0.000000
0.418884 0.526093 0.000000
0.451752 0.526093 0.000000
0.487366 0.526093 0.000000
0.526093 0.526093 0.000000
0.568207 0.526093 0.000000
0.613922 0.526093 0.000000
0.662933 0.526093 0.000000
0.714783 0.526093 0.000000
0.769012 0.526093 0.000000
0.825104 0.526093 0.000000
0.882629 0.526093 0.000000
0.941071 0.526093 0.000000
1.000000 0.526093 0.000000
0.000000 0.568207 0.000000
0.019287 0.568207 0.000000
0.038574 0.568207 0.000000
0.057983 0.568207 0.000000
0.077454 0.568207 0.000000
0.097046 0.568207 0.000000
0.116852 0.568207 0.000000
0.136841 0.568207 0.000000
0.157074 0.568207 0.000000
0.177582 0.568207 0.000000
0.198364 0.568207 0.000000
0.219543 0.568207 0.000000
0.241058 0.568207 0.000000
0.263000 0.568207 0.000000
0.285614 0.568207 0.000000
0.309113 0.568207 0.000000
0.333954 0.568207 0.000000
0.360291 0.568207 0.000000
0.388519 0.568207 0.000000
0.418884 0.568207 0.000000
0.451752 0.568207 0.000000
0.487366 0.568207 0.000000
0.526093 0.568207 0.000000
0.568207 0.568207 0.000000
0.613922 0.568207 0.000000
0.662933 0.568207 0.000000
0.714783 0.568207 0.000000
0.769012 0.568207 0.000000
0.825104 0.568207 0.000000
0.882629 0.568207 0.000000
0.941071 0.568207 0.000000
1.000000 0.568207 0.000000
0.000000 0.613922 0.000000
0.019287 0.613922 0.000000
0.038574 0.613922 0.000000
0.057983 0.613922 0.000000
0.077454 0.613922 0.000000
0.097046 0.613922 0.000000
0.116852 0.613922 0.000000
0.136841 0.613922 0.000000
0.157074 0.613922 0.000000
0.177582 0.613922 0.000000
0.198364 0.613922 0.000000
0.219543 0.613922 0.000000
0.241058 0.613922 0.000000
0.263000 0.613922 0.000000
0.285614 0.613922 0.000000
0.309113 0.613922 0.000000
0.333954 0.613922 0.000000
0.360291 0.613922 0.000000
0.388519 0.613922 0.000000
0.418884 0.613922 0.000000
0.451752 0.613922 0.000000
0.487366 0.613922 0.000000
0.526093 0.613922 0.000000
0.568207 0.613922 0.000000
0.613922 0.613922 0.000000
0.662933 0.613922 0.000000
0.714783 0.613922 0.000000
0.769012 0.613922 0.000000
0.825104 0.613922 0.000000
0.882629 0.613922 0.000000
0.941071 0.613922 0.000000
1.000000 0.613922 0.000000
0.000000 0.662933 0.000000
0.019287 0.662933 0.000000
0.038574 0.662933 0.000000
0.057983 0.662933 0.000000
0.077454 0.662933 0.000000
0.097046 0.662933 0.000000
0.116852 0.662933 0.000000
0.136841 0.662933 0.000000
0.157074 0.662933 0.000000
0.177582 0.662933 0.000000
0.198364 0.662933 0.000000
0.219543 0.662933 0.000000
0.241058 0.662933 0.000000
0.263000 0.662933 0.000000
0.285614 0.662933 0.000000
0.309113 0.662933 0.000000
0.333954 0.662933 0.000000
0.360291 0.662933 0.000000
0.388519 0.662933 0.000000
0.418884 0.662933 0.000000
0.451752 0.662933 0.000000
0.487366 0.662933 0.000000
0.526093 0.662933 0.000000
0.568207 0.662933 0.000000
0.613922 0.662933 0.000000
0.662933 0.662933 0.000000
0.714783 0.662933 0.000000
0.769012 0.662933 0.000000
0.825104 0.662933 0.000000
0.882629 0.662933 0.000000
0.941071 0.662933 0.000000
1.000000 0.662933 0.000000
0.000000 0.714783 0.000000
0.019287 0.714783 0.000000
0.038574 0.714783 0.000000
0.057983 0.714783 0.000000
0.077454 0.714783 0.000000
0.097046 0.714783 0.000000
0.116852 0.714783 0.000000
0.136841 0.714783 0.000000
0.157074 0.714783 0.000000
0.177582 0.714783 0.000000
0.198364 0.714783 0.000000
0.219543 0.714783 0.000000
0.241058 0.714783 0.000000
0.263000 0.714783 0.000000
0.285614 0.714783 0.000000
0.309113 0.714783 0.000000
0.333954 0.714783 0.000000
0.360291 0.714783 0.000000
0.388519 0.714783 0.000000
0.418884 0.714783 0.000000
0.451752 0.714783 0.000000
0.487366 0.714783 0.000000
0.526093 0.714783 0.000000
0.568207 0.714783 0.000000
0.613922 0.714783 0.000000
0.662933 0.714783 0.000000
0.714783 0.714783 0.000000
0.769012 0.714783 0.000000
0.825104 0.714783 0.000000
0.882629 0.714783 0.000000
0.941071 0.714783 0.000000
1.000000 0.714783 0.000000
0.000000 0.769012 0.000000
0.019287 0.769012 0.000000
0.038574 0.769012 0.000000
0.057983 0.769012 0.000000
0.077454 0.769012 0.000000
0.097046 0.769012 0.000000
0.116852 0.769012 0.000000
0.136841 0.769012 0.000000
0.157074 0.769012 0.000000
0.177582 0.769012 0.000000
0.198364 0.769012 0.000000
0.219543 0.769012 0.000000
0.241058 0.769012 0.000000
0.263000 0.769012 0.000000
0.285614 0.769012 0.000000
0.309113 0.769012 0.000000
0.333954 0.769012 0.000000
0.360291 0.769012 0.000000
