build/A__psScripts/assets/[A] Dodge.cube
#Created by: Adobe Photoshop Export Color Lookup Plugin
TITLE "Dodge"
#LUT size
LUT_3D_SIZE 5
#data domain
#LUT data points
DOMAIN_MIN 0.000000 0.000000 0.000000
DOMAIN_MAX 0.903226 0.903226 0.903226
0.000000 0.000000 0.000000
0.342743 0.009552 0.009552
0.621002 0.015472 0.015472
0.804535 0.018524 0.018524
0.914764 0.020050 0.020050
0.016510 0.353485 0.016510
0.362335 0.362335 0.021423
0.643036 0.367676 0.023682
0.828156 0.370392 0.024323
0.939362 0.371674 0.024414
0.023193 0.640961 0.023193
0.371460 0.649231 0.024414
0.654144 0.654144 0.023712
0.840546 0.656525 0.022430
0.952515 0.657684 0.021393
0.024414 0.830780 0.024414
0.374298 0.838684 0.023254
0.658264 0.843292 0.020599
0.845520 0.845520 0.018097
0.957977 0.846527 0.016266
0.023987 0.944885 0.023987
0.374817 0.952576 0.021362
0.659546 0.957031 0.017578
0.847290 0.959106 0.014313
0.960052 0.960052 0.012054
0.003754 0.003754 0.334503
0.347076 0.012421 0.347076
0.625793 0.017670 0.355438
0.809631 0.020294 0.360107
0.920044 0.021545 0.362549
0.018555 0.356995 0.356995
0.364960 0.364960 0.364960
0.646118 0.369629 0.369629
0.831573 0.371887 0.371887
0.942932 0.372925 0.372925
0.023895 0.644257 0.368469
0.372742 0.651672 0.372742
0.655884 0.655884 0.374481
0.842621 0.657867 0.374817
0.954742 0.658722 0.374695
0.024261 0.833954 0.372833
0.374695 0.840973 0.374695
0.659119 0.844910 0.374512
0.846680 0.846680 0.373566
0.959320 0.847443 0.372711
0.023285 0.947968 0.374268
0.374695 0.954773 0.374695
0.659882 0.958557 0.373352
0.847931 0.960205 0.371674
0.960876 0.960876 0.370361
0.006531 0.006531 0.604065
0.350342 0.014526 0.619080
0.629395 0.019226 0.629395
0.813477 0.021484 0.635345
0.924042 0.022522 0.638550
0.019989 0.359558 0.631348
0.366852 0.366852 0.641754
0.648407 0.370972 0.648407
0.834076 0.372894 0.651917
0.945587 0.373688 0.653717
0.024261 0.646667 0.646667
0.373566 0.653381 0.653381
0.657074 0.657074 0.657074
0.844025 0.658661 0.658661
0.956299 0.659302 0.659302
0.023895 0.836243 0.653534
0.374817 0.842590 0.657837
0.659607 0.845978 0.659607
0.847382 0.847382 0.659943
0.960175 0.847931 0.659851
0.022522 0.950226 0.656464
0.374359 0.956329 0.659332
0.659943 0.959564 0.659943
0.848236 0.960846 0.659515
0.961304 0.961304 0.658966
0.008240 0.008240 0.780914
0.352325 0.015778 0.797516
0.631653 0.020111 0.809113
0.815887 0.022156 0.815887
0.926514 0.023041 0.819580
0.020813 0.361145 0.811340
0.367981 0.367981 0.823334
0.649750 0.371735 0.831238
0.835602 0.373413 0.835602
0.947205 0.374084 0.837860
0.024384 0.648132 0.829163
0.373993 0.654419 0.837463
0.657745 0.657745 0.842407
0.844849 0.659088 0.844849
0.957214 0.659607 0.845978
0.023560 0.837646 0.837646
0.374756 0.843536 0.843536
0.659790 0.846588 0.846588
0.847748 0.847748 0.847748
0.960632 0.848145 0.848145
0.021912 0.951569 0.841553
0.374054 0.957245 0.846008
0.659851 0.960114 0.847900
0.848297 0.961151 0.848297
0.961487 0.961487 0.848267
0.009216 0.009216 0.886810
0.353485 0.016510 0.904358
0.632935 0.020630 0.916687
0.817291 0.022522 0.923981
0.927979 0.023315 0.927979
0.021301 0.362061 0.919098
0.368622 0.368622 0.932037
0.650543 0.372192 0.940704
0.836456 0.373688 0.945557
0.948120 0.374298 0.948120
0.024414 0.648987 0.938385
0.374207 0.654968 0.947662
0.658081 0.658081 0.953369
0.845276 0.659302 0.956268
0.957733 0.659729 0.957733
0.023315 0.838440 0.947876
0.374695 0.844055 0.954712
0.659882 0.846893 0.958496
0.847931 0.847931 0.960175
0.960846 0.848236 0.960846
0.021484 0.952332 0.952332
0.373840 0.957764 0.957764
0.659790 0.960388 0.960388
0.848297 0.961304 0.961304
0.961548 0.961548 0.961548
