build/A__psScripts/assets/[A] Dodge.cube
#Created by: Adobe Photoshop Export Color Lookup Plugin
TITLE "Dodge"
#LUT size
LUT_3D_SIZE 32
#data domain
DOMAIN_MIN 0.0 0.0 0.0
DOMAIN_MAX 1.0 1.0 1.0
#LUT data points
0.000000 0.000000 0.000000
0.050385 0.001556 0.001556
0.100616 0.003052 0.003052
0.150574 0.004486 0.004486
0.200043 0.005890 0.005890
0.248627 0.007141 0.007141
0.296295 0.008362 0.008362
0.342743 0.009552 0.009552
0.387695 0.010590 0.010590
0.431061 0.011597 0.011597
0.472687 0.012482 0.012482
0.512573 0.013336 0.013336
0.550629 0.014099 0.014099
0.586792 0.014832 0.014832
0.621002 0.015472 0.015472
0.653259 0.016052 0.016052
0.683472 0.016602 0.016602
0.711578 0.017029 0.017029
0.737579 0.017487 0.017487
0.761658 0.017853 0.017853
0.783936 0.018219 0.018219
0.804535 0.018524 0.018524
0.823608 0.018799 0.018799
0.841309 0.019043 0.019043
0.857880 0.019287 0.019287
0.873291 0.019501 0.019501
0.887817 0.019684 0.019684
0.901611 0.019867 0.019867
0.914764 0.020050 0.020050
0.927460 0.020203 0.020203
0.939880 0.020355 0.020355
0.952148 0.020508 0.020508
0.003021 0.051910 0.003021
0.053467 0.053467 0.004486
0.103790 0.054962 0.005890
0.153839 0.056366 0.007202
0.203278 0.057709 0.008484
0.252014 0.058990 0.009674
0.299713 0.060211 0.010803
0.346222 0.061340 0.011871
0.391235 0.062378 0.012848
0.434631 0.063385 0.013733
0.476349 0.064270 0.014557
0.516266 0.065094 0.015320
0.554352 0.065857 0.016022
0.590576 0.066528 0.016663
0.624847 0.067200 0.017242
0.657104 0.067749 0.017761
0.687378 0.068268 0.018219
0.715546 0.068756 0.018646
0.741577 0.069183 0.019043
0.765656 0.069550 0.019379
0.787964 0.069916 0.019684
0.808594 0.070190 0.019958
0.827698 0.070465 0.020203
0.845459 0.070740 0.020416
0.861969 0.070923 0.020599
0.877441 0.071167 0.020782
0.891998 0.071350 0.020966
0.905792 0.071533 0.021118
0.918976 0.071686 0.021271
0.931702 0.071869 0.021393
0.944122 0.071991 0.021545
0.956390 0.072144 0.021667
0.005798 0.103699 0.005798
0.056305 0.105225 0.007172
0.106720 0.106720 0.008484
0.156830 0.108124 0.009705
0.206360 0.109467 0.010895
0.255127 0.110718 0.011963
0.302917 0.111908 0.013031
0.349457 0.113037 0.013977
0.394531 0.114044 0.014862
0.437988 0.115021 0.015686
0.479797 0.115936 0.016449
0.519745 0.116760 0.017120
0.557861 0.117462 0.017731
0.594147 0.118164 0.018311
0.628448 0.118805 0.018829
0.660797 0.119385 0.019287
0.691071 0.119873 0.019714
0.719269 0.120331 0.020050
0.745361 0.120758 0.020386
0.769470 0.121124 0.020691
0.791779 0.121460 0.020935
0.812469 0.121765 0.021179
0.831573 0.122040 0.021393
0.849365 0.122284 0.021576
0.865936 0.122498 0.021759
0.881378 0.122681 0.021881
0.895966 0.122894 0.022034
0.909790 0.123047 0.022156
0.922974 0.123199 0.022278
0.935699 0.123352 0.022400
0.948151 0.123505 0.022491
0.960449 0.123657 0.022583
0.008392 0.155243 0.008392
0.058990 0.156769 0.009644
0.109406 0.158203 0.010834
0.159576 0.159576 0.011963
0.209229 0.160919 0.013092
0.258057 0.162170 0.014069
0.305878 0.163361 0.015045
0.352509 0.164459 0.015900
0.397644 0.165466 0.016693
0.441162 0.166443 0.017426
0.482971 0.167297 0.018066
0.522980 0.168091 0.018707
0.561188 0.168854 0.019257
0.597473 0.169525 0.019745
0.631836 0.170135 0.020203
0.664185 0.170685 0.020569
0.694550 0.171204 0.020935
0.722778 0.171661 0.021271
0.748871 0.172058 0.021545
0.773041 0.172424 0.021790
0.795410 0.172729 0.022003
0.816071 0.173035 0.022186
0.835205 0.173279 0.022339
0.853027 0.173523 0.022522
0.869598 0.173737 0.022644
0.885101 0.173950 0.022766
0.899689 0.174133 0.022888
0.913513 0.174316 0.022980
0.926727 0.174469 0.023071
0.939484 0.174622 0.023193
0.951935 0.174774 0.023254
0.964264 0.174896 0.023346
0.010742 0.206177 0.010742
0.061401 0.207703 0.011902
0.111908 0.209137 0.013031
0.162170 0.210541 0.014099
0.211823 0.211823 0.015045
0.260742 0.213074 0.015961
0.308624 0.214233 0.016815
0.355316 0.215332 0.017578
0.400482 0.216309 0.018280
0.444061 0.217255 0.018951
0.485962 0.218140 0.019562
0.526001 0.218933 0.020081
0.564240 0.219635 0.020538
0.600616 0.220306 0.020996
0.634979 0.220917 0.021362
0.667419 0.221466 0.021698
0.697784 0.221954 0.022003
0.726044 0.222382 0.022247
0.752197 0.222809 0.022491
0.776367 0.223175 0.022705
0.798767 0.223480 0.022858
0.819489 0.223785 0.023041
0.838654 0.224030 0.023163
0.856445 0.224274 0.023285
0.873077 0.224487 0.023376
0.888580 0.224670 0.023468
0.903198 0.224854 0.023560
0.917053 0.225006 0.023651
0.930267 0.225159 0.023682
0.943024 0.225311 0.023773
0.955505 0.225433 0.023834
0.967834 0.225586 0.023865
0.012909 0.256378 0.012909
0.063599 0.257874 0.013947
0.114197 0.259308 0.014984
0.164490 0.260681 0.015930
0.214203 0.261963 0.016785
0.263184 0.263184 0.017609
0.311127 0.264313 0.018372
0.357849 0.265381 0.019073
0.403137 0.266418 0.019714
0.446747 0.267334 0.020264
0.488678 0.268188 0.020782
0.528778 0.268951 0.021240
0.567078 0.269684 0.021637
0.603485 0.270325 0.022003
0.637909 0.270905 0.022308
0.670380 0.271454 0.022614
0.700775 0.271942 0.022827
0.729065 0.272400 0.023041
0.755249 0.272766 0.023224
0.779449 0.273132 0.023376
0.801849 0.273438 0.023529
0.822601 0.273743 0.023651
0.841766 0.273956 0.023712
0.859650 0.274231 0.023834
0.876282 0.274414 0.023895
0.891815 0.274597 0.023956
0.906433 0.274780 0.024017
0.920288 0.274933 0.024078
0.933563 0.275085 0.024109
0.946320 0.275238 0.024170
0.958832 0.275360 0.024200
0.971161 0.275513 0.024231
0.014832 0.305573 0.014832
0.065613 0.307037 0.015808
0.116211 0.308441 0.016693
0.166565 0.309784 0.017548
0.216370 0.311066 0.018311
0.265381 0.312286 0.019073
0.313416 0.313416 0.019745
0.360199 0.314484 0.020355
0.405518 0.315491 0.020905
0.449219 0.316406 0.021393
0.491180 0.317200 0.021820
0.531311 0.317993 0.022186
0.569702 0.318695 0.022552
0.606110 0.319336 0.022827
0.640625 0.319946 0.023102
0.673065 0.320435 0.023315
0.703522 0.320923 0.023499
0.731873 0.321381 0.023651
0.758087 0.321747 0.023804
0.782318 0.322083 0.023895
0.804749 0.322388 0.023987
0.825500 0.322662 0.024078
0.844727 0.322906 0.024139
0.862579 0.323151 0.024200
0.879242 0.323334 0.024231
0.894806 0.323547 0.024292
0.909424 0.323700 0.024323
0.923309 0.323853 0.024323
0.936584 0.324005 0.024353
0.949371 0.324158 0.024384
0.961884 0.324280 0.024384
0.974243 0.324402 0.024414
0.016510 0.353485 0.016510
0.067322 0.354950 0.017365
0.118011 0.356323 0.018188
0.168457 0.357666 0.018951
0.218323 0.358948 0.019684
0.267395 0.360138 0.020325
0.315460 0.361267 0.020874
0.362335 0.362335 0.021423
0.407684 0.363281 0.021881
0.451416 0.364197 0.022308
0.493439 0.365021 0.022675
0.533630 0.365784 0.022980
0.572021 0.366455 0.023224
0.608521 0.367126 0.023468
0.643036 0.367676 0.023682
0.675568 0.368195 0.023834
0.706055 0.368683 0.023987
0.734406 0.369080 0.024078
0.760651 0.369476 0.024170
0.784912 0.369812 0.024231
0.807373 0.370117 0.024292
0.828156 0.370392 0.024323
0.847382 0.370636 0.024353
0.865295 0.370850 0.024384
0.881958 0.371033 0.024414
0.897522 0.371216 0.024414
0.912170 0.371368 0.024414
0.926086 0.371552 0.024414
0.939362 0.371674 0.024414
0.952179 0.371826 0.024414
0.964691 0.371948 0.024414
0.977051 0.372070 0.024384
0.017975 0.399933 0.017975
0.068878 0.401367 0.018768
0.119629 0.402740 0.019501
0.170105 0.404083 0.020203
0.220032 0.405304 0.020782
0.269165 0.406494 0.021362
0.317291 0.407593 0.021851
0.364197 0.408630 0.022308
0.409607 0.409607 0.022705
0.453369 0.410492 0.023010
0.495483 0.411316 0.023315
0.535706 0.412079 0.023560
0.574158 0.412750 0.023773
0.610657 0.413361 0.023926
0.645233 0.413940 0.024078
0.677795 0.414459 0.024170
0.708313 0.414917 0.024261
0.736725 0.415344 0.024323
0.762970 0.415710 0.024353
0.787292 0.416046 0.024414
0.809753 0.416321 0.024414
0.830566 0.416595 0.024414
0.849823 0.416840 0.024414
0.867737 0.417053 0.024414
0.884430 0.417236 0.024414
0.899994 0.417419 0.024384
0.914703 0.417603 0.024384
0.928589 0.417725 0.024353
0.941895 0.417877 0.024323
0.954712 0.417999 0.024292
0.967255 0.418121 0.024261
0.979645 0.418243 0.024231
0.019257 0.444672 0.019257
0.070221 0.446106 0.019958
0.121033 0.447479 0.020630
0.171570 0.448792 0.021210
0.221527 0.450012 0.021729
0.270721 0.451202 0.022217
0.318909 0.452301 0.022644
0.365875 0.453339 0.023010
0.411316 0.454285 0.023315
0.455170 0.455170 0.023590
0.497284 0.455963 0.023804
0.537567 0.456696 0.023987
0.576050 0.457367 0.024109
0.612610 0.457977 0.024231
0.647217 0.458557 0.024323
0.679810 0.459045 0.024353
0.710358 0.459503 0.024384
0.738770 0.459930 0.024414
0.765076 0.460266 0.024414
0.789398 0.460602 0.024414
0.811890 0.460907 0.024384
0.832733 0.461151 0.024353
0.851990 0.461365 0.024323
0.869965 0.461609 0.024292
0.886658 0.461792 0.024231
0.902252 0.461975 0.024200
0.916931 0.462128 0.024170
0.930878 0.462280 0.024109
0.944183 0.462402 0.024078
0.957031 0.462555 0.024048
0.969574 0.462646 0.023987
0.981964 0.462769 0.023926
0.020355 0.487732 0.020355
0.071381 0.489136 0.020996
0.122223 0.490479 0.021545
0.172821 0.491791 0.022034
0.222839 0.493011 0.022522
0.272064 0.494171 0.022888
0.320312 0.495270 0.023254
0.367310 0.496277 0.023560
0.412842 0.497223 0.023804
0.456726 0.498108 0.023987
0.498871 0.498871 0.024139
0.539185 0.499603 0.024231
0.577728 0.500275 0.024323
0.614319 0.500885 0.024384
0.648956 0.501434 0.024414
0.681580 0.501923 0.024414
0.712189 0.502380 0.024414
0.740631 0.502777 0.024384
0.766937 0.503113 0.024323
0.791321 0.503448 0.024292
0.813843 0.503754 0.024231
0.834686 0.503998 0.024170
0.853973 0.504211 0.024109
0.871948 0.504425 0.024048
0.888641 0.504608 0.023987
0.904297 0.504791 0.023926
0.918976 0.504944 0.023834
0.932922 0.505096 0.023773
0.946259 0.505219 0.023712
0.959076 0.505341 0.023651
0.971649 0.505463 0.023590
0.984070 0.505585 0.023529
0.021271 0.528870 0.021271
0.072327 0.530273 0.021820
0.123260 0.531647 0.022339
0.173889 0.532928 0.022766
0.223969 0.534149 0.023132
0.273285 0.535278 0.023468
0.321533 0.536346 0.023712
0.368591 0.537354 0.023956
0.414154 0.538269 0.024109
0.458069 0.539154 0.024231
0.500305 0.539948 0.024353
0.540649 0.540649 0.024384
0.579193 0.541321 0.024414
0.615845 0.541901 0.024384
0.650513 0.542450 0.024384
0.683197 0.542938 0.024353
0.713806 0.543396 0.024292
0.742279 0.543793 0.024200
0.768616 0.544128 0.024139
0.792999 0.544434 0.024048
0.815552 0.544739 0.023956
0.836426 0.544983 0.023865
0.855743 0.545197 0.023773
0.873718 0.545410 0.023682
0.890442 0.545563 0.023590
0.906097 0.545746 0.023499
0.920807 0.545898 0.023407
0.934753 0.546051 0.023315
0.948090 0.546173 0.023254
0.960968 0.546295 0.023163
0.973541 0.546417 0.023071
0.985962 0.546509 0.022980
0.022064 0.568207 0.022064
0.073151 0.569611 0.022522
0.124115 0.570923 0.022919
0.174805 0.572205 0.023285
0.224915 0.573395 0.023590
0.274261 0.574554 0.023834
0.322601 0.575623 0.024048
0.369690 0.576599 0.024200
0.415314 0.577545 0.024323
0.459259 0.578400 0.024384
0.501495 0.579163 0.024414
0.541931 0.579865 0.024414
0.580505 0.580505 0.024384
0.617188 0.581116 0.024323
0.651886 0.581635 0.024261
0.684570 0.582123 0.024139
0.715210 0.582550 0.024048
0.743744 0.582947 0.023926
0.770111 0.583282 0.023804
0.794525 0.583588 0.023712
0.817108 0.583862 0.023590
0.837982 0.584106 0.023468
0.857300 0.584320 0.023346
0.875305 0.584534 0.023224
0.892059 0.584717 0.023102
0.907715 0.584869 0.023010
0.922424 0.585022 0.022888
0.936371 0.585144 0.022797
0.949768 0.585297 0.022705
0.962616 0.585419 0.022583
0.975220 0.585541 0.022491
0.987640 0.585632 0.022369
0.022675 0.605591 0.022675
0.073822 0.606964 0.023071
0.124847 0.608276 0.023407
0.175568 0.609528 0.023682
0.225739 0.610748 0.023956
0.275116 0.611847 0.024109
0.323486 0.612915 0.024261
0.370667 0.613922 0.024353
0.416290 0.614807 0.024414
0.460297 0.615662 0.024414
0.502594 0.616425 0.024384
0.543030 0.617126 0.024323
0.581665 0.617767 0.024231
0.618378 0.618378 0.024139
0.653107 0.618866 0.024017
0.685822 0.619354 0.023895
0.716492 0.619812 0.023743
0.745026 0.620178 0.023590
0.771423 0.620514 0.023438
0.795837 0.620819 0.023285
0.818451 0.621094 0.023132
0.839355 0.621338 0.022980
0.858704 0.621552 0.022858
0.876709 0.621735 0.022705
0.893463 0.621918 0.022583
0.909119 0.622070 0.022430
0.923859 0.622223 0.022308
0.937836 0.622345 0.022186
0.951233 0.622467 0.022064
0.964081 0.622589 0.021942
0.976715 0.622711 0.021820
0.989136 0.622803 0.021698
0.023193 0.640961 0.023193
0.074402 0.642334 0.023529
0.125427 0.643646 0.023804
0.176208 0.644897 0.024017
0.226440 0.646088 0.024200
0.275848 0.647186 0.024292
0.324280 0.648254 0.024384
0.371460 0.649231 0.024414
0.417145 0.650116 0.024414
0.461182 0.650970 0.024353
0.503510 0.651703 0.024261
0.543976 0.652405 0.024170
0.582642 0.653046 0.024017
0.619385 0.653625 0.023895
0.654144 0.654144 0.023712
0.686890 0.654602 0.023529
0.717590 0.655029 0.023346
0.746155 0.655426 0.023163
0.772552 0.655731 0.022980
0.796997 0.656036 0.022797
0.819641 0.656311 0.022644
0.840546 0.656525 0.022430
0.859924 0.656769 0.022278
0.877930 0.656952 0.022125
0.894714 0.657104 0.021942
0.910400 0.657288 0.021820
0.925140 0.657410 0.021667
0.939117 0.657562 0.021515
0.952515 0.657684 0.021393
0.965393 0.657776 0.021240
0.978027 0.657898 0.021118
0.990479 0.658020 0.020966
0.023560 0.674286 0.023560
0.074799 0.675629 0.023834
0.125916 0.676971 0.024078
0.176758 0.678192 0.024231
0.226990 0.679382 0.024323
0.276459 0.680481 0.024414
0.324921 0.681519 0.024414
0.372131 0.682465 0.024384
0.417847 0.683380 0.024323
0.461914 0.684174 0.024200
0.504303 0.684967 0.024078
0.544800 0.685638 0.023926
0.583496 0.686279 0.023743
0.620239 0.686829 0.023560
0.655060 0.687347 0.023346
0.687805 0.687805 0.023132
0.718536 0.688232 0.022919
0.747131 0.688599 0.022675
0.773560 0.688934 0.022461
0.798035 0.689240 0.022247
0.820679 0.689484 0.022064
0.841614 0.689728 0.021851
0.860992 0.689941 0.021667
0.878998 0.690125 0.021484
0.895813 0.690277 0.021301
0.911499 0.690430 0.021149
0.926270 0.690582 0.020966
0.940277 0.690704 0.020813
0.953674 0.690826 0.020660
0.966553 0.690948 0.020508
0.979187 0.691040 0.020355
0.991638 0.691162 0.020203
0.023895 0.705566 0.023895
0.075165 0.706909 0.024109
0.126312 0.708191 0.024261
0.177155 0.709412 0.024353
0.227448 0.710571 0.024384
0.276947 0.711670 0.024414
0.325439 0.712708 0.024384
0.372711 0.713684 0.024292
0.418457 0.714569 0.024170
0.462585 0.715393 0.024017
0.504944 0.716125 0.023834
0.545502 0.716797 0.023621
0.584229 0.717438 0.023407
0.621002 0.717987 0.023193
0.655823 0.718506 0.022949
0.688629 0.718933 0.022675
0.719360 0.719360 0.022430
0.747955 0.719727 0.022156
0.774445 0.720062 0.021942
0.798920 0.720337 0.021698
0.821564 0.720612 0.021454
0.842529 0.720825 0.021240
0.861908 0.721039 0.021027
0.879974 0.721222 0.020813
0.896759 0.721375 0.020630
0.912476 0.721558 0.020447
0.927246 0.721680 0.020264
0.941254 0.721802 0.020081
0.954651 0.721924 0.019928
0.967560 0.722046 0.019745
0.980225 0.722137 0.019592
0.992676 0.722260 0.019440
0.024078 0.734619 0.024078
0.075409 0.735962 0.024231
0.126587 0.737274 0.024353
0.177490 0.738495 0.024414
0.227814 0.739655 0.024414
0.277344 0.740723 0.024353
0.325867 0.741760 0.024261
0.373169 0.742706 0.024139
0.418945 0.743591 0.023956
0.463074 0.744385 0.023773
0.505493 0.745117 0.023560
0.546082 0.745789 0.023315
0.584808 0.746399 0.023041
0.621643 0.746979 0.022766
0.656494 0.747467 0.022491
0.689301 0.747925 0.022186
0.720093 0.748352 0.021912
0.748718 0.748718 0.021637
0.775177 0.749023 0.021362
0.799683 0.749298 0.021088
0.822357 0.749573 0.020844
0.843323 0.749786 0.020599
0.862701 0.750000 0.020355
0.880768 0.750153 0.020142
0.897583 0.750336 0.019928
0.913300 0.750488 0.019745
0.928101 0.750610 0.019531
0.942108 0.750763 0.019348
0.955536 0.750854 0.019165
0.968445 0.750977 0.018982
0.981079 0.751068 0.018829
0.993561 0.751160 0.018616
0.024261 0.761536 0.024261
0.075592 0.762848 0.024353
0.126801 0.764130 0.024414
0.177765 0.765381 0.024414
0.228088 0.766510 0.024353
0.277679 0.767609 0.024261
0.326233 0.768616 0.024139
0.373535 0.769562 0.023956
0.419342 0.770416 0.023743
0.463531 0.771210 0.023499
0.505981 0.771973 0.023254
0.546570 0.772644 0.022949
0.585358 0.773224 0.022644
0.622192 0.773773 0.022339
0.657043 0.774292 0.022034
0.689880 0.774750 0.021698
0.720673 0.775146 0.021393
0.749329 0.775482 0.021088
0.775818 0.775818 0.020782
0.800323 0.776093 0.020508
0.822998 0.776337 0.020233
0.843994 0.776581 0.019958
0.863403 0.776764 0.019714
0.881500 0.776947 0.019470
0.898315 0.777100 0.019226
0.914032 0.777252 0.019043
0.928833 0.777374 0.018829
0.942841 0.777527 0.018616
0.956268 0.777618 0.018433
0.969208 0.777740 0.018250
0.981842 0.777832 0.018036
0.994324 0.777924 0.017853
0.024353 0.786438 0.024353
0.075745 0.787750 0.024414
0.126953 0.789032 0.024414
0.177917 0.790222 0.024353
0.228302 0.791382 0.024261
0.277924 0.792450 0.024139
0.326508 0.793488 0.023956
0.373840 0.794403 0.023743
0.419708 0.795258 0.023499
0.463898 0.796051 0.023193
0.506378 0.796783 0.022919
0.546997 0.797455 0.022583
0.585754 0.798065 0.022247
0.622620 0.798615 0.021912
0.657532 0.799103 0.021545
0.690369 0.799530 0.021210
0.721191 0.799927 0.020874
0.749847 0.800293 0.020538
0.776367 0.800598 0.020203
0.800873 0.800873 0.019897
0.823578 0.801147 0.019623
0.844574 0.801361 0.019318
0.864014 0.801544 0.019073
0.882080 0.801727 0.018799
0.898926 0.801880 0.018555
0.914673 0.802032 0.018341
0.929474 0.802155 0.018097
0.943481 0.802277 0.017883
0.956940 0.802399 0.017700
0.969849 0.802490 0.017487
0.982513 0.802612 0.017273
0.995026 0.802704 0.017090
0.024414 0.809479 0.024414
0.075836 0.810791 0.024414
0.127075 0.812042 0.024384
0.178040 0.813232 0.024292
0.228485 0.814362 0.024139
0.278107 0.815460 0.023987
0.326721 0.816467 0.023743
0.374084 0.817383 0.023499
0.419983 0.818268 0.023224
0.464203 0.819061 0.022888
0.506683 0.819763 0.022552
0.547302 0.820404 0.022186
0.586121 0.821014 0.021851
0.623016 0.821564 0.021454
0.657928 0.822052 0.021088
0.690796 0.822510 0.020721
0.721619 0.822876 0.020355
0.750305 0.823242 0.019989
0.776825 0.823547 0.019623
0.801361 0.823822 0.019318
0.824066 0.824066 0.019012
0.845093 0.824280 0.018707
0.864502 0.824463 0.018402
0.882599 0.824646 0.018158
0.899445 0.824829 0.017883
0.915192 0.824951 0.017639
0.929993 0.825073 0.017395
0.944031 0.825195 0.017181
0.957489 0.825317 0.016968
0.970428 0.825409 0.016754
0.983093 0.825531 0.016541
0.995605 0.825623 0.016327
0.024414 0.830780 0.024414
0.075836 0.832092 0.024384
0.127167 0.833374 0.024323
0.178162 0.834564 0.024200
0.228607 0.835693 0.024017
0.278259 0.836761 0.023804
0.326904 0.837738 0.023529
0.374298 0.838684 0.023254
0.420166 0.839508 0.022919
0.464417 0.840302 0.022552
0.506958 0.841034 0.022186
0.547607 0.841675 0.021820
0.586426 0.842255 0.021393
0.623352 0.842804 0.021027
0.658264 0.843292 0.020599
0.691162 0.843750 0.020203
0.721985 0.844116 0.019836
0.750671 0.844482 0.019440
0.777222 0.844788 0.019073
0.801758 0.845062 0.018738
0.824493 0.845306 0.018402
0.845520 0.845520 0.018097
0.864960 0.845703 0.017792
0.883057 0.845886 0.017517
0.899902 0.846039 0.017242
0.915680 0.846161 0.016998
0.930481 0.846313 0.016754
0.944519 0.846405 0.016510
0.957977 0.846527 0.016266
0.970917 0.846619 0.016052
0.983582 0.846710 0.015839
0.996094 0.846802 0.015625
0.024414 0.850494 0.024414
0.075867 0.851807 0.024323
0.127197 0.853088 0.024231
0.178223 0.854279 0.024078
0.228668 0.855377 0.023865
0.278381 0.856445 0.023590
0.327026 0.857422 0.023315
0.374451 0.858368 0.022980
0.420349 0.859222 0.022614
0.464600 0.859985 0.022247
0.507172 0.860718 0.021851
0.547852 0.861359 0.021423
0.586700 0.861938 0.020996
0.623596 0.862457 0.020569
0.658539 0.862946 0.020142
0.691467 0.863403 0.019745
0.722290 0.863770 0.019318
0.751007 0.864136 0.018921
0.777557 0.864410 0.018524
0.802124 0.864685 0.018158
0.824860 0.864929 0.017822
0.845886 0.865143 0.017487
0.865326 0.865326 0.017181
0.883453 0.865509 0.016876
0.900330 0.865662 0.016602
0.916077 0.865814 0.016357
0.930908 0.865936 0.016083
0.944946 0.866058 0.015839
0.958405 0.866150 0.015594
0.971344 0.866241 0.015381
0.984039 0.866364 0.015137
0.996552 0.866455 0.014923
0.024384 0.868866 0.024384
0.075867 0.870178 0.024261
0.127197 0.871429 0.024109
0.178223 0.872620 0.023926
0.228729 0.873749 0.023682
0.278442 0.874786 0.023407
0.327118 0.875763 0.023071
0.374573 0.876678 0.022705
0.420502 0.877533 0.022339
0.464783 0.878326 0.021912
0.507324 0.878998 0.021484
0.548035 0.879669 0.021057
0.586884 0.880249 0.020599
0.623840 0.880798 0.020142
0.658783 0.881256 0.019684
0.691711 0.881683 0.019257
0.722565 0.882080 0.018829
0.751282 0.882416 0.018402
0.777863 0.882721 0.018005
0.802429 0.882996 0.017639
0.825165 0.883209 0.017273
0.846191 0.883423 0.016937
0.865662 0.883606 0.016602
0.883789 0.883789 0.016296
0.900665 0.883942 0.015991
0.916412 0.884094 0.015717
0.931244 0.884216 0.015442
0.945312 0.884308 0.015198
0.958771 0.884430 0.014954
0.971741 0.884521 0.014740
0.984406 0.884613 0.014496
0.996918 0.884705 0.014252
0.024323 0.885986 0.024323
0.075836 0.887268 0.024200
0.127167 0.888519 0.023987
0.178253 0.889679 0.023773
0.228760 0.890808 0.023499
0.278473 0.891846 0.023163
0.327179 0.892853 0.022827
0.374634 0.893738 0.022430
0.420593 0.894592 0.022034
0.464905 0.895386 0.021606
0.507477 0.896057 0.021118
0.548187 0.896698 0.020660
0.587067 0.897308 0.020203
0.624023 0.897827 0.019714
0.658997 0.898285 0.019257
0.691925 0.898712 0.018799
0.722809 0.899109 0.018341
0.751526 0.899445 0.017914
0.778107 0.899750 0.017487
0.802704 0.900024 0.017090
0.825439 0.900238 0.016724
0.846466 0.900452 0.016357
0.865967 0.900635 0.016022
0.884094 0.900787 0.015717
0.900970 0.900970 0.015411
0.916718 0.901093 0.015137
0.931580 0.901215 0.014862
0.945618 0.901337 0.014587
0.959106 0.901428 0.014343
0.972046 0.901520 0.014099
0.984741 0.901611 0.013855
0.997253 0.901733 0.013611
0.024231 0.901947 0.024231
0.075775 0.903259 0.024078
0.127136 0.904480 0.023865
0.178253 0.905670 0.023621
0.228760 0.906769 0.023315
0.278503 0.907806 0.022949
0.327240 0.908783 0.022583
0.374725 0.909698 0.022156
0.420685 0.910553 0.021729
0.464996 0.911316 0.021271
0.507568 0.911987 0.020782
0.548309 0.912628 0.020294
0.587219 0.913239 0.019806
0.624176 0.913757 0.019318
0.659180 0.914215 0.018829
0.692108 0.914642 0.018341
0.722992 0.915009 0.017883
0.751740 0.915344 0.017426
0.778320 0.915649 0.016998
0.802917 0.915924 0.016602
0.825684 0.916138 0.016205
0.846710 0.916351 0.015839
0.866211 0.916534 0.015472
0.884338 0.916718 0.015167
0.901215 0.916870 0.014832
0.916992 0.916992 0.014557
0.931854 0.917114 0.014282
0.945892 0.917236 0.014008
0.959381 0.917328 0.013733
0.972351 0.917419 0.013489
0.985046 0.917511 0.013245
0.997559 0.917603 0.013000
0.024170 0.916992 0.024170
0.075714 0.918274 0.023987
0.127106 0.919525 0.023743
0.178223 0.920685 0.023468
0.228760 0.921783 0.023132
0.278534 0.922852 0.022766
0.327271 0.923828 0.022339
0.374756 0.924713 0.021912
0.420746 0.925537 0.021423
0.465057 0.926300 0.020935
0.507690 0.927002 0.020447
0.548431 0.927643 0.019928
0.587341 0.928223 0.019409
0.624298 0.928741 0.018921
0.659302 0.929199 0.018402
0.692261 0.929626 0.017914
0.723175 0.929993 0.017426
0.751923 0.930359 0.016968
0.778503 0.930634 0.016510
0.803131 0.930908 0.016083
0.825867 0.931122 0.015686
0.846954 0.931335 0.015320
0.866425 0.931519 0.014954
0.884552 0.931671 0.014618
0.901459 0.931824 0.014313
0.917236 0.931976 0.014008
0.932098 0.932098 0.013702
0.946167 0.932190 0.013428
0.959625 0.932312 0.013153
0.972595 0.932404 0.012909
0.985291 0.932495 0.012634
0.997833 0.932587 0.012390
0.024078 0.931244 0.024078
0.075623 0.932526 0.023834
0.127045 0.933746 0.023590
0.178192 0.934937 0.023285
0.228760 0.936035 0.022919
0.278503 0.937073 0.022522
0.327271 0.938049 0.022095
0.374786 0.938934 0.021637
0.420776 0.939758 0.021149
0.465149 0.940521 0.020630
0.507751 0.941223 0.020111
0.548523 0.941864 0.019592
0.587433 0.942444 0.019043
0.624420 0.942932 0.018524
0.659424 0.943420 0.017975
0.692413 0.943817 0.017487
0.723328 0.944214 0.016968
0.752075 0.944550 0.016510
