build/A__psScripts/assets/[A] Dodge.cube
#Created by: Adobe Photoshop Export Color Lookup Plugin
TITLE "Dodge"
#LUT size
LUT_3D_SIZE 8
#data domain
#LUT data points
DOMAIN_MIN 0.000000 0.000000 0.000000
DOMAIN_MAX 0.903226 0.903226 0.903226
0.000000 0.000000 0.000000
0.200043 0.005890 0.005890
0.387695 0.010590 0.010590
0.550629 0.014099 0.014099
0.683472 0.016602 0.016602
0.783936 0.018219 0.018219
0.857880 0.019287 0.019287
0.914764 0.020050 0.020050
0.010742 0.206177 0.010742
0.211823 0.211823 0.015045
0.400482 0.216309 0.018280
0.564240 0.219635 0.020538
0.697784 0.221954 0.022003
0.798767 0.223480 0.022858
0.873077 0.224487 0.023376
0.930267 0.225159 0.023682
0.017975 0.399933 0.017975
0.220032 0.405304 0.020782
0.409607 0.409607 0.022705
0.574158 0.412750 0.023773
0.708313 0.414917 0.024261
0.809753 0.416321 0.024414
0.884430 0.417236 0.024414
0.941895 0.417877 0.024323
0.022064 0.568207 0.022064
0.224915 0.573395 0.023590
0.415314 0.577545 0.024323
0.580505 0.580505 0.024384
0.715210 0.582550 0.024048
0.817108 0.583862 0.023590
0.892059 0.584717 0.023102
0.949768 0.585297 0.022705
0.023895 0.705566 0.023895
0.227448 0.710571 0.024384
0.418457 0.714569 0.024170
0.584229 0.717438 0.023407
0.719360 0.719360 0.022430
0.821564 0.720612 0.021454
0.896759 0.721375 0.020630
0.954651 0.721924 0.019928
0.024414 0.809479 0.024414
0.228485 0.814362 0.024139
0.419983 0.818268 0.023224
0.586121 0.821014 0.021851
0.721619 0.822876 0.020355
0.824066 0.824066 0.019012
0.899445 0.824829 0.017883
0.957489 0.825317 0.016968
0.024323 0.885986 0.024323
0.228760 0.890808 0.023499
0.420593 0.894592 0.022034
0.587067 0.897308 0.020203
0.722809 0.899109 0.018341
0.825439 0.900238 0.016724
0.900970 0.900970 0.015411
0.959106 0.901428 0.014343
0.023987 0.944885 0.023987
0.228729 0.949677 0.022736
0.420837 0.953400 0.020844
0.587524 0.956024 0.018677
0.723450 0.957794 0.016541
0.826202 0.958923 0.014709
0.901855 0.959595 0.013245
0.960052 0.960052 0.012054
0.002228 0.002228 0.195526
0.202454 0.007812 0.202454
0.390320 0.012268 0.208130
0.553406 0.015533 0.212494
0.686371 0.017822 0.215668
0.786926 0.019318 0.217804
0.860931 0.020294 0.219238
0.917908 0.020966 0.220276
0.012421 0.208344 0.208344
0.213684 0.213684 0.213684
0.402557 0.217926 0.217926
0.566467 0.221008 0.221008
0.700104 0.223114 0.223114
0.801178 0.224487 0.224487
0.875580 0.225403 0.225403
0.932831 0.225983 0.225983
0.019104 0.401978 0.217499
0.221344 0.407074 0.221344
0.411102 0.411102 0.224213
0.575806 0.414001 0.226105
0.710083 0.415985 0.227295
0.811646 0.417267 0.227936
0.886383 0.418060 0.228302
0.943909 0.418610 0.228516
0.022705 0.570221 0.223206
0.225800 0.575104 0.225800
0.416351 0.578979 0.227478
0.581726 0.581726 0.228363
0.716553 0.583557 0.228729
0.818512 0.584747 0.228790
0.893524 0.585480 0.228668
0.951294 0.585968 0.228546
0.024170 0.707489 0.226379
0.227936 0.712250 0.227936
0.419128 0.715942 0.228668
0.585052 0.718567 0.228760
0.720337 0.720337 0.228455
0.822601 0.721405 0.227997
0.897888 0.722076 0.227509
0.955841 0.722534 0.227112
0.024414 0.811371 0.227875
0.228668 0.815979 0.228668
0.420349 0.819580 0.228699
0.586670 0.822113 0.228180
0.722290 0.823792 0.227356
0.824829 0.824829 0.226532
0.900299 0.825470 0.225769
0.958374 0.825897 0.225159
0.024109 0.887848 0.228516
0.228760 0.892395 0.228760
0.420776 0.895905 0.228271
0.587402 0.898346 0.227264
0.723267 0.899994 0.226074
0.825989 0.900970 0.224976
0.901581 0.901581 0.224030
0.959778 0.901978 0.223267
0.023621 0.946747 0.228760
0.228546 0.951202 0.228546
0.420837 0.954681 0.227661
0.587708 0.957062 0.226318
0.723755 0.958649 0.224854
0.826599 0.959625 0.223541
0.902313 0.960205 0.222443
0.960571 0.960571 0.221527
0.004211 0.004211 0.378174
0.204620 0.009552 0.386078
0.392670 0.013733 0.392670
0.555878 0.016785 0.397797
0.688965 0.018860 0.401550
0.789612 0.020264 0.404205
0.863678 0.021088 0.405975
0.920715 0.021729 0.407288
0.013885 0.210266 0.392914
0.215332 0.215332 0.399200
0.404358 0.219299 0.404358
0.568420 0.222168 0.408203
0.702179 0.224091 0.410950
0.803314 0.225342 0.412811
0.877777 0.226135 0.414062
0.935089 0.226685 0.414917
0.020050 0.403809 0.403809
0.222473 0.408630 0.408630
0.412415 0.412415 0.412415
0.577240 0.415100 0.415100
0.711670 0.416901 0.416901
0.813293 0.418030 0.418030
0.888092 0.418732 0.418732
0.945679 0.419220 0.419220
0.023224 0.571991 0.411041
0.226501 0.576599 0.414612
0.417206 0.580200 0.417206
0.582703 0.582703 0.418884
0.717682 0.584412 0.419861
0.819733 0.585449 0.420380
0.894836 0.586090 0.420624
0.952637 0.586517 0.420776
0.024353 0.709198 0.415466
0.228271 0.713684 0.417999
0.419647 0.717133 0.419647
0.585693 0.719513 0.420502
0.721100 0.721100 0.420807
0.823486 0.722046 0.420837
0.898834 0.722626 0.420715
0.956818 0.723022 0.420563
0.024323 0.813019 0.417908
0.228760 0.817383 0.419678
0.420593 0.820709 0.420593
0.587067 0.823029 0.420837
0.722809 0.824524 0.420654
0.825439 0.825439 0.420288
0.900970 0.825989 0.419891
0.959106 0.826324 0.419556
0.023804 0.889465 0.419220
0.228668 0.893768 0.420441
0.420837 0.897003 0.420837
0.587616 0.899231 0.420624
0.723602 0.900696 0.420074
0.826416 0.901550 0.419434
0.902069 0.902069 0.418854
0.960297 0.902405 0.418335
0.023163 0.948364 0.419983
0.228302 0.952545 0.420746
0.420746 0.955750 0.420746
0.587769 0.957947 0.420197
0.723938 0.959351 0.419373
0.826874 0.960175 0.418518
0.902649 0.960663 0.417755
0.960968 0.960968 0.417145
0.005859 0.005859 0.536072
0.206421 0.010925 0.544800
0.394592 0.014893 0.552155
0.557953 0.017761 0.557953
0.691162 0.019745 0.562286
0.791870 0.020966 0.565277
0.865997 0.021759 0.567383
0.923035 0.022278 0.568939
0.015045 0.211823 0.552429
0.216644 0.216644 0.559570
0.405792 0.220398 0.565460
0.570007 0.223083 0.570007
0.703888 0.224884 0.573303
0.805115 0.225983 0.575531
0.879639 0.226715 0.577087
0.936981 0.227173 0.578186
0.020813 0.405334 0.564880
0.223358 0.409912 0.570526
0.413483 0.413483 0.575073
0.578430 0.415955 0.578430
0.712921 0.417603 0.580780
0.814636 0.418610 0.582306
0.889496 0.419250 0.583313
0.947144 0.419678 0.584045
0.023590 0.573425 0.573425
0.227020 0.577820 0.577820
0.417908 0.581177 0.581177
0.583527 0.583527 0.583527
0.718597 0.585052 0.585052
0.820709 0.585968 0.585968
0.895874 0.586517 0.586517
0.953705 0.586884 0.586884
0.024414 0.710602 0.578888
0.228516 0.714844 0.582275
0.420013 0.718048 0.584686
0.586212 0.720276 0.586212
0.721710 0.721710 0.587067
0.824158 0.722565 0.587494
0.899567 0.723053 0.587677
0.957611 0.723358 0.587738
0.024170 0.814392 0.582123
0.228760 0.818512 0.584747
0.420746 0.821625 0.586426
0.587341 0.823761 0.587341
0.723206 0.825104 0.587708
0.825897 0.825897 0.587769
0.901459 0.826355 0.587677
0.959656 0.826630 0.587524
0.023499 0.890808 0.584045
0.228485 0.894867 0.586090
0.420807 0.897888 0.587280
0.587738 0.899933 0.587738
0.723816 0.901245 0.587708
0.826691 0.901978 0.587494
0.902405 0.902405 0.587189
0.960693 0.902679 0.586914
0.022736 0.949677 0.585266
0.227997 0.953644 0.586853
0.420593 0.956604 0.587646
0.587738 0.958618 0.587738
0.723999 0.959869 0.587463
0.827026 0.960571 0.587006
0.902863 0.960999 0.586578
0.961212 0.961212 0.586151
0.007172 0.007172 0.664368
0.207794 0.011993 0.673737
0.396149 0.015839 0.681763
0.559601 0.018555 0.688110
0.692841 0.020355 0.692841
0.793610 0.021484 0.696198
0.867798 0.022217 0.698547
0.924927 0.022736 0.700287
0.015961 0.213043 0.682068
0.217651 0.217651 0.689850
0.406982 0.221252 0.696411
0.571259 0.223785 0.701477
0.705200 0.225433 0.705200
0.806519 0.226501 0.707794
0.881042 0.227112 0.709564
0.938446 0.227539 0.710876
0.021362 0.406494 0.695709
0.224060 0.410889 0.702057
0.414246 0.414246 0.707245
0.579315 0.416595 0.711121
0.713928 0.418121 0.713928
0.815704 0.419067 0.715790
0.890594 0.419586 0.717041
0.948242 0.419952 0.717926
0.023834 0.574524 0.705322
0.227386 0.578735 0.710419
0.418365 0.581940 0.714417
0.584137 0.584137 0.717316
0.719269 0.585510 0.719269
0.821442 0.586365 0.720520
0.896667 0.586853 0.721313
0.954529 0.587158 0.721863
0.024414 0.711670 0.711670
0.228638 0.715729 0.715729
0.420258 0.718781 0.718781
0.586548 0.720825 0.720825
0.722137 0.722137 0.722137
0.824646 0.722900 0.722900
0.900116 0.723328 0.723328
0.958160 0.723572 0.723572
0.023987 0.815460 0.715576
0.228729 0.819366 0.718872
0.420837 0.822327 0.721191
0.587524 0.824310 0.722656
0.723450 0.825500 0.723450
0.826202 0.826202 0.723816
0.901825 0.826599 0.723969
0.960052 0.826813 0.724030
0.023193 0.891846 0.717957
0.228302 0.895691 0.720673
0.420746 0.898560 0.722504
0.587769 0.900452 0.723480
0.723907 0.901611 0.723907
0.826874 0.902283 0.724030
0.902649 0.902649 0.723969
0.960968 0.902832 0.723877
0.022308 0.950684 0.719543
0.227722 0.954468 0.721832
0.420441 0.957275 0.723206
0.587677 0.959106 0.723877
0.724030 0.960236 0.724030
0.827118 0.960846 0.723907
0.902985 0.961182 0.723694
0.961395 0.961395 0.723480
0.008087 0.008087 0.761108
0.208832 0.012787 0.770996
0.397217 0.016449 0.779449
0.560730 0.019073 0.786224
0.694092 0.020782 0.791321
0.794922 0.021881 0.794922
0.869141 0.022552 0.797485
0.926270 0.022980 0.799316
0.016602 0.213959 0.779816
0.218414 0.218414 0.788116
0.407806 0.221863 0.795135
0.572144 0.224274 0.800629
0.706177 0.225830 0.804657
0.807526 0.226807 0.807526
0.882111 0.227386 0.809479
0.939514 0.227783 0.810913
0.021729 0.407349 0.794403
0.224548 0.411591 0.801270
0.414825 0.414825 0.806915
0.579956 0.417053 0.811218
0.714630 0.418488 0.814331
0.816467 0.419342 0.816467
0.891388 0.419830 0.817871
0.949066 0.420166 0.818909
0.024017 0.575348 0.804840
0.227661 0.579407 0.810425
0.418732 0.582458 0.814880
0.584534 0.584534 0.818176
0.719757 0.585846 0.820465
0.821991 0.586609 0.821991
0.897217 0.587036 0.822968
0.955109 0.587311 0.823639
0.024384 0.712463 0.811798
0.228729 0.716370 0.816376
0.420410 0.719269 0.819885
0.586792 0.721222 0.822388
0.722443 0.722443 0.824005
0.825012 0.723114 0.825012
0.900482 0.723511 0.825623
0.958588 0.723724 0.826019
0.023804 0.816193 0.816193
0.228668 0.820007 0.820007
0.420837 0.822784 0.822784
0.587616 0.824677 0.824677
0.723602 0.825806 0.825806
0.826416 0.826416 0.826416
0.902069 0.826752 0.826752
0.960327 0.826935 0.826935
0.022919 0.892578 0.818970
0.228149 0.896301 0.822205
0.420685 0.899017 0.824463
0.587769 0.900818 0.825867
0.723969 0.901886 0.826630
0.826996 0.902466 0.826996
0.902771 0.902771 0.827118
0.961121 0.902954 0.827148
0.021973 0.951416 0.820801
0.227478 0.955048 0.823578
0.420288 0.957733 0.825470
0.587585 0.959442 0.826538
0.723999 0.960480 0.826996
0.827148 0.961029 0.827148
0.903046 0.961334 0.827118
0.961456 0.961456 0.827057
0.008728 0.008728 0.832184
0.209564 0.013367 0.842468
0.398041 0.016937 0.851288
0.561615 0.019440 0.858337
0.695007 0.021118 0.863647
0.795868 0.022125 0.867432
0.870087 0.022766 0.870087
0.927246 0.023193 0.872070
0.017059 0.214569 0.851624
0.218964 0.218964 0.860321
0.408386 0.222290 0.867676
0.572815 0.224609 0.873444
0.706879 0.226135 0.877777
0.808258 0.227051 0.880768
0.882874 0.227570 0.882874
0.940277 0.227936 0.884399
0.022003 0.407928 0.866913
0.224884 0.412079 0.874115
0.415222 0.415222 0.880127
0.580444 0.417389 0.884735
0.715118 0.418732 0.888092
0.816986 0.419525 0.890381
0.891937 0.420013 0.891937
0.949646 0.420288 0.893066
0.024109 0.575928 0.877930
0.227814 0.579865 0.883850
0.418945 0.582855 0.888672
0.584839 0.584839 0.892273
0.720062 0.586060 0.894806
0.822357 0.586761 0.896484
0.897614 0.587189 0.897614
0.955536 0.587433 0.898407
0.024353 0.713013 0.885376
0.228729 0.716827 0.890289
0.420532 0.719635 0.894165
0.586945 0.721497 0.896942
0.722626 0.722626 0.898804
0.825226 0.723267 0.899994
0.900757 0.723602 0.900757
0.958862 0.723816 0.901245
0.023682 0.816772 0.890106
0.228577 0.820435 0.894287
0.420837 0.823151 0.897430
0.587677 0.824921 0.899597
0.723694 0.825958 0.900970
0.826538 0.826538 0.901764
0.902222 0.826843 0.902222
0.960510 0.827026 0.902527
0.022705 0.893127 0.893127
0.227997 0.896729 0.896729
0.420593 0.899353 0.899353
0.587738 0.901062 0.901062
0.723999 0.902069 0.902069
0.827057 0.902588 0.902588
0.902863 0.902863 0.902863
0.961243 0.903015 0.903015
0.021698 0.951935 0.895172
0.227264 0.955475 0.898346
0.420166 0.958038 0.900574
0.587524 0.959686 0.901917
0.723969 0.960663 0.902649
0.827148 0.961151 0.902954
0.903076 0.961395 0.903076
0.961517 0.961517 0.903107
0.009216 0.009216 0.886810
0.210144 0.013794 0.897369
0.398621 0.017273 0.906464
0.562256 0.019714 0.913727
0.695679 0.021332 0.919250
0.796570 0.022339 0.923187
0.870850 0.022949 0.925964
0.927979 0.023315 0.927979
0.017395 0.215057 0.906799
0.219330 0.219330 0.915771
0.408844 0.222626 0.923401
0.573303 0.224884 0.929413
0.707397 0.226318 0.933899
0.808807 0.227203 0.937073
0.883423 0.227722 0.939270
0.940887 0.228058 0.940887
0.022186 0.408386 0.922607
0.225128 0.412476 0.930145
0.415527 0.415527 0.936371
0.580780 0.417603 0.941223
0.715515 0.418915 0.944763
0.817383 0.419678 0.947205
0.892365 0.420105 0.948883
0.950073 0.420380 0.950073
0.024170 0.576355 0.934082
0.227936 0.580231 0.940308
0.419128 0.583130 0.945404
0.585052 0.585052 0.949219
0.720337 0.586243 0.951935
0.822632 0.586914 0.953766
0.897888 0.587280 0.954987
0.955841 0.587494 0.955841
0.024323 0.713440 0.941895
0.228760 0.717163 0.947113
0.420593 0.719910 0.951263
0.587067 0.721710 0.954254
0.722778 0.722778 0.956299
0.825409 0.723389 0.957642
0.900940 0.723694 0.958496
0.959076 0.723846 0.959076
0.023560 0.817169 0.946930
0.228516 0.820770 0.951385
0.420837 0.823395 0.954803
0.587708 0.825104 0.957184
0.723755 0.826111 0.958740
0.826630 0.826630 0.959686
0.902344 0.826904 0.960266
0.960632 0.827057 0.960632
0.022552 0.893524 0.950134
0.227875 0.897034 0.954010
0.420532 0.899597 0.956909
0.587708 0.901245 0.958862
0.724030 0.902191 0.960052
0.827087 0.902679 0.960724
0.902924 0.902924 0.961090
0.961304 0.903046 0.961304
0.021484 0.952332 0.952332
0.227112 0.955780 0.955780
0.420044 0.958282 0.958282
0.587463 0.959869 0.959869
0.723938 0.960785 0.960785
0.827148 0.961243 0.961243
0.903076 0.961456 0.961456
0.961548 0.961548 0.961548
